lut/DFC/FOREST_SHOW_LUT_v1_REC709.2013.07.21.3dl
# Generated by Foundry::LUT
0 33 66 99 132 165 198 231 264 297 330 363 396 429 462 495 528 561 594 627 660 693 726 759 792 825 858 891 924 957 990 1023 
0 2 5
0 2 6
0 2 8
0 3 10
0 4 13
0 4 14
0 4 14
0 4 13
0 2 8
0 2 5
0 1 2
0 0 0
0 0 0
0 0 0
0 0 0
0 0 0
0 0 0
0 0 0
0 0 0
0 0 0
0 0 0
0 0 0
0 0 0
0 0 0
0 0 0
0 0 0
0 0 0
0 0 0
0 0 0
0 0 0
0 0 0
0 0 0
0 3 11
0 3 11
0 4 14
0 5 17
0 5 19
0 6 22
0 7 24
0 7 26
0 6 24
0 5 18
0 4 14
0 3 10
0 2 6
0 1 1
0 0 0
0 0 0
0 0 0
0 0 0
0 0 0
0 0 0
0 0 0
0 0 0
0 0 0
0 0 0
0 0 0
0 0 0
0 0 0
0 0 0
0 0 0
0 0 0
0 0 0
0 0 0
0 6 20
0 6 23
0 6 22
0 6 24
0 7 27
0 8 29
0 9 32
0 9 34
0 9 36
0 9 35
0 8 29
0 7 24
0 6 21
0 4 16
0 3 11
0 2 6
0 1 2
0 0 0
0 0 0
0 0 0
0 0 0
0 0 0
0 0 0
0 0 0
0 0 0
0 0 0
0 0 0
0 0 0
0 0 0
0 0 0
0 0 0
0 0 0
0 9 25
0 10 31
0 10 35
0 10 36
0 9 35
0 10 38
0 11 41
0 12 44
0 12 46
0 13 48
0 12 46
0 11 41
0 10 36
0 9 33
0 8 29
0 6 24
0 5 19
0 4 13
0 2 8
0 1 3
0 0 0
0 0 0
0 0 0
0 0 0
0 0 0
0 0 0
0 0 0
0 0 0
0 0 0
0 0 0
0 0 0
0 0 0
0 16 31
0 18 36
0 19 43
0 19 49
0 18 51
0 16 48
0 17 52
0 17 55
0 17 58
0 16 60
0 16 62
0 15 59
0 14 55
0 13 50
0 12 47
0 11 42
0 10 38
0 9 33
0 8 29
0 6 23
0 5 17
0 3 11
0 2 7
0 1 2
0 0 0
0 0 0
0 0 0
0 0 0
0 0 0
0 0 0
0 0 0
0 0 0
0 27 39
0 28 43
0 30 48
0 32 57
0 31 64
0 29 68
0 27 65
0 26 67
0 25 71
0 25 74
0 23 76
0 22 78
0 19 74
0 18 69
0 17 66
0 16 63
0 15 58
0 14 54
0 13 49
0 12 44
0 10 38
0 9 33
0 7 27
0 6 22
0 4 15
0 2 7
0 1 1
0 0 0
0 0 0
0 0 0
0 0 0
0 0 0
0 42 48
0 43 52
0 44 57
0 47 63
0 48 72
0 46 82
0 43 87
0 40 85
0 38 85
0 37 89
0 35 93
0 32 95
0 30 97
0 25 91
0 22 85
0 21 82
0 21 80
0 20 76
0 19 72
0 17 66
0 16 62
0 15 56
0 13 48
0 11 42
0 10 37
0 8 30
0 6 21
0 4 13
0 2 7
0 1 1
0 0 0
0 0 0
0 63 57
0 63 62
0 63 67
0 63 73
0 66 79
0 67 90
0 65 102
0 61 110
0 57 110
0 54 106
0 52 111
0 50 116
0 45 119
0 41 121
0 33 113
0 28 104
0 26 100
0 26 99
0 25 95
0 24 91
0 22 86
0 21 81
0 19 74
0 17 66
0 16 59
0 14 53
0 12 45
0 9 36
0 8 29
0 6 22
0 4 15
0 2 7
0 85 64
0 86 70
0 86 77
0 86 84
0 86 91
0 90 99
0 92 112
0 90 130
0 85 142
0 80 142
0 75 135
0 72 142
0 70 149
0 63 152
0 58 154
0 45 143
0 36 130
0 33 125
0 32 122
0 31 121
0 30 115
0 28 109
0 27 103
0 24 94
0 22 86
0 20 79
0 19 72
0 16 63
0 14 53
0 12 45
0 10 38
0 8 31
0 112 71
0 113 77
0 114 85
0 114 94
0 115 104
0 115 114
0 122 124
0 125 142
0 124 166
0 118 182
0 111 186
0 104 173
0 100 181
0 96 190
0 88 194
0 80 197
0 61 181
0 48 165
0 43 158
0 40 153
0 39 149
0 38 147
0 36 139
0 34 132
0 31 120
0 28 110
0 26 101
0 24 93
0 21 83
0 19 72
0 17 64
0 15 56
0 148 82
0 149 89
0 151 97
0 152 107
0 153 119
0 154 131
0 155 145
0 164 159
0 170 182
0 170 212
0 163 235
0 154 240
0 144 227
0 138 233
0 133 245
0 122 249
0 111 252
0 85 232
0 65 210
0 57 201
0 52 194
0 49 188
0 48 184
0 46 179
0 43 169
0 40 157
0 37 142
0 34 131
0 31 120
0 28 107
0 24 94
0 22 85
0 194 98
0 196 105
0 198 113
0 200 124
0 202 137
0 203 152
0 205 168
0 206 186
0 218 203
0 226 233
0 228 273
0 220 302
0 207 311
0 196 297
0 187 299
0 181 313
0 165 317
0 151 322
0 116 296
0 89 269
0 77 256
0 69 247
0 64 239
0 60 232
0 58 226
0 56 218
0 52 201
0 47 185
0 44 170
0 40 157
0 36 140
0 32 123
0 254 120
0 255 127
0 258 136
0 260 147
0 264 160
0 266 176
0 268 195
0 270 216
0 272 239
0 286 261
0 296 297
0 300 346
0 289 382
0 274 395
0 260 381
0 248 378
0 239 394
0 221 400
0 202 405
0 157 374
0 120 341
0 103 326
0 91 314
0 83 303
0 78 294
0 74 284
0 71 277
0 67 261
0 61 240
0 57 222
0 53 205
0 47 184
2 328 147
0 330 155
0 333 164
0 336 176
0 338 190
0 341 206
0 345 227
0 347 251
0 349 277
0 353 305
0 368 332
0 380 374
0 385 432
0 371 475
0 352 491
0 336 477
0 320 469
0 310 488
0 286 494
0 264 500
0 206 464
0 160 426
0 136 408
0 120 395
0 108 382
0 100 370
0 94 357
0 90 347
0 86 333
0 79 309
0 74 288
0 69 268
67 415 183
60 418 192
50 419 201
35 422 213
28 426 226
14 430 244
3 434 264
0 438 289
0 440 318
0 444 351
0 447 384
0 462 415
0 478 463
0 480 524
0 461 572
0 439 591
0 420 577
0 402 568
5 389 586
0 361 593
0 334 599
0 266 562
0 209 522
0 179 505
0 157 488
0 140 472
0 128 458
0 119 443
0 112 429
0 106 410
0 101 395
0 95 370
129 514 229
115 515 237
107 518 246
87 521 258
78 523 272
58 527 289
34 532 309
17 535 333
0 541 360
0 543 396
1 546 434
0 550 471
0 565 507
0 580 557
0 581 621
0 558 670
0 531 688
3 511 679
125 492 667
21 475 686
40 444 692
0 412 697
0 335 664
0 267 624
0 229 604
0 201 586
0 179 571
0 162 555
0 149 538
0 140 522
0 131 501
0 125 482
255 617 285
247 619 293
229 623 301
218 625 312
207 627 325
179 630 341
151 635 360
89 638 383
28 642 410
21 646 441
0 649 479
0 653 522
21 655 563
0 669 601
0 683 651
0 681 712
0 653 759
0 626 777
96 606 770
268 585 759
235 568 775
115 533 782
99 500 788
0 413 758
0 335 722
0 289 703
0 254 688
0 226 672
0 203 657
0 185 639
0 172 623
0 160 599
379 719 353
372 721 360
368 722 368
357 725 377
356 726 389
344 728 404
335 731 421
320 734 441
297 739 467
275 742 496
220 747 529
194 750 569
176 752 613
164 755 652
13 764 692
0 779 739
0 770 794
0 743 834
41 716 850
328 697 845
422 678 834
399 661 848
358 626 854
299 592 859
124 500 837
13 412 809
0 359 794
0 317 779
0 282 766
0 253 751
0 230 736
0 211 719
505 810 435
505 811 441
500 812 448
497 813 456
491 814 466
485 815 480
480 817 494
471 821 513
464 821 534
450 823 560
442 826 588
417 830 621
407 832 657
399 833 700
404 835 737
335 841 774
71 856 816
0 845 859
103 818 892
344 791 903
497 778 899
562 764 892
543 746 903
508 714 907
466 679 912
371 591 899
209 498 879
65 440 868
0 391 858
0 350 847
0 315 837
0 285 824
615 883 512
615 883 524
620 882 539
626 882 548
622 882 556
618 884 566
613 884 578
607 885 591
604 886 610
595 889 629
590 889 652
580 891 679
573 894 710
565 894 743
559 896 779
566 896 810
540 900 842
410 912 872
292 902 908
408 876 933
525 848 939
619 836 934
666 822 926
646 804 932
610 772 934
573 739 935
496 663 930
404 580 923
316 522 919
179 472 916
0 425 908
0 386 902
713 941 595
715 940 603
719 939 614
724 938 629
727 936 645
724 936 653
725 936 664
722 937 674
716 937 687
716 937 704
711 938 720
708 938 742
702 939 764
701 939 790
695 940 815
693 940 843
698 941 869
689 942 894
606 953 918
561 946 947
592 923 964
657 899 967
723 887 962
755 875 954
735 858 957
702 827 957
669 797 956
598 724 948
515 642 941
443 583 937
359 530 933
257 479 928
795 982 681
797 982 685
799 981 693
801 979 701
805 978 715
811 976 730
816 974 746
811 974 754
810 973 763
808 974 773
804 973 786
802 973 799
799 972 817
797 972 833
797 972 854
799 972 876
798 972 898
801 972 917
801 972 936
743 981 953
705 975 974
718 958 987
760 939 989
810 930 984
834 920 978
814 905 979
785 879 978
753 851 976
687 783 967
612 707 959
552 651 955
484 594 951
866 1008 757
865 1008 760
867 1007 764
868 1006 770
870 1005 779
871 1004 788
877 1003 801
881 1000 816
883 999 828
881 999 835
880 998 844
879 997 854
874 997 863
873 996 877
873 995 891
875 994 908
876 994 924
876 994 939
878 994 953
882 993 967
839 1000 977
805 999 994
808 982 1005
835 965 1006
873 958 1002
890 952 997
872 938 998
846 917 996
819 893 995
762 837 986
697 769 977
645 715 973
907 1023 811
907 1023 813
908 1023 818
908 1023 822
909 1023 827
911 1023 835
913 1021 844
917 1021 853
921 1019 867
925 1017 881
926 1016 890
924 1015 896
922 1015 903
921 1014 912
920 1013 921
920 1012 932
922 1011 944
924 1011 956
925 1011 968
926 1011 977
928 1011 988
898 1016 995
870 1015 1009
857 998 1017
874 983 1018
906 978 1015
924 974 1011
907 961 1012
885 942 1011
862 922 1010
820 878 1003
764 819 995
923 1023 846
924 1023 848
925 1023 851
925 1023 855
926 1023 858
927 1023 863
930 1023 870
932 1023 878
935 1023 887
938 1023 896
943 1023 909
948 1023 921
945 1023 925
946 1023 932
944 1023 938
944 1023 946
944 1023 954
946 1023 964
950 1023 975
953 1022 985
952 1022 993
955 1021 1001
927 1023 1006
897 1022 1018
876 1008 1023
892 993 1023
924 989 1022
944 988 1020
928 976 1021
908 960 1021
886 941 1021
854 904 1016
932 1023 861
932 1023 863
932 1023 864
933 1023 867
934 1023 869
934 1023 872
935 1023 877
938 1023 883
940 1023 889
942 1023 896
946 1023 907
952 1023 916
957 1023 931
958 1023 937
957 1023 941
957 1023 948
956 1023 955
957 1023 964
958 1023 973
962 1023 983
966 1023 994
968 1023 1002
969 1023 1009
954 1023 1017
926 1023 1023
932 1023 1023
955 1023 1023
979 1019 1022
988 1014 1022
983 1010 1022
969 999 1021
953 986 1021
994 1023 902
994 1023 903
994 1023 904
995 1023 906
995 1023 907
996 1023 909
997 1023 912
997 1023 916
997 1023 920
998 1023 926
999 1023 932
1001 1023 941
1002 1023 950
1005 1023 962
1006 1023 971
1006 1023 977
1006 1023 983
1007 1023 990
1007 1023 997
1007 1023 1005
1009 1023 1011
1010 1022 1017
1009 1022 1021
1010 1022 1022
1004 1022 1022
994 1022 1022
997 1022 1022
1010 1022 1022
1019 1022 1022
1020 1022 1022
1019 1022 1022
1014 1022 1022
1023 1023 942
1023 1023 943
1023 1023 944
1023 1023 945
1023 1023 946
1023 1023 947
1023 1023 949
1023 1023 952
1023 1023 956
1023 1023 960
1023 1023 964
1023 1023 971
1023 1023 978
1023 1023 986
1023 1023 995
1023 1023 1004
1023 1023 1008
1023 1023 1012
1023 1023 1016
1023 1022 1019
1022 1022 1021
1022 1022 1022
1022 1022 1022
1022 1022 1022
1022 1022 1022
1022 1022 1022
1022 1022 1022
1022 1022 1022
1022 1022 1022
1022 1022 1022
1022 1022 1022
1022 1022 1022
1023 1023 982
1023 1023 982
1023 1023 983
1023 1023 984
