lut/DFC/FOREST_SHOW_LUT_v1_REC709.2013.07.21.cube
TITLE "Generated by Foundry::LUT"
LUT_3D_SIZE 8
DOMAIN_MIN 0.000000 0.000000 0.000000
DOMAIN_MAX 0.903226 0.903226 0.903226
0.000000 0.000992 0.003906
0.000000 0.004608 0.018082
0.039612 0.003738 0.029282
0.192752 0.000000 0.000000
0.506828 0.000000 0.000000
0.875975 0.136233 0.000000
1.000000 0.461921 0.200198
1.000000 0.727535 0.596674
0.000000 0.014862 0.030167
0.000000 0.020951 0.037842
0.058900 0.035157 0.045258
0.216312 0.042908 0.000000
0.520500 0.048615 0.000000
0.886229 0.189212 0.000000
1.000000 0.483162 0.223880
1.000000 0.731441 0.601068
0.000000 0.082948 0.061952
0.000000 0.088808 0.068177
0.077516 0.109255 0.068299
0.245121 0.149783 0.058381
0.544915 0.206180 0.000000
0.908690 0.289311 0.000000
1.000000 0.523919 0.276127
1.000000 0.740230 0.608392
0.000000 0.247196 0.116945
0.019486 0.254887 0.126101
0.143679 0.281254 0.138064
0.332280 0.356207 0.114260
0.637690 0.416022 0.111086
0.958495 0.479011 0.132204
1.000000 0.627436 0.382330
1.000000 0.765133 0.630365
0.248295 0.602533 0.278080
0.292241 0.607416 0.288579
0.347173 0.627924 0.282719
0.464118 0.678218 0.250736
0.768063 0.748531 0.254887
1.000000 0.757321 0.375494
1.000000 0.789548 0.553704
1.000000 0.822751 0.688960
0.696284 0.918944 0.580560
0.701167 0.920897 0.578607
0.713375 0.925292 0.576654
0.750484 0.936522 0.570306
0.850095 0.957031 0.579583
1.000000 0.975097 0.635248
1.000000 0.932128 0.716793
1.000000 0.921874 0.789548
0.901366 1.000000 0.825681
0.900877 1.000000 0.826169
0.903807 1.000000 0.824216
0.906737 1.000000 0.821286
0.919432 1.000000 0.813474
0.959472 1.000000 0.806638
1.000000 1.000000 0.805661
1.000000 1.000000 0.887694
1.000000 1.000000 0.958984
1.000000 1.000000 0.958984
1.000000 1.000000 0.960449
1.000000 1.000000 0.959960
1.000000 1.000000 0.960937
1.000000 1.000000 0.961425
1.000000 1.000000 0.967773
1.000000 0.999023 0.985840
0.000000 0.003021 0.011872
0.000000 0.006210 0.024353
0.026841 0.016342 0.066346
0.211429 0.000000 0.077333
0.524895 0.000000 0.000000
0.881834 0.123720 0.000000
1.000000 0.462409 0.231815
1.000000 0.727535 0.601556
0.000000 0.016922 0.049042
0.000000 0.022004 0.052644
0.051301 0.034150 0.075990
0.235721 0.015473 0.078065
0.534661 0.016495 0.000000
0.891112 0.179202 0.000000
1.000000 0.480964 0.253422
1.000000 0.731929 0.605463
0.000000 0.083314 0.088136
0.000000 0.090089 0.094301
0.075013 0.106386 0.111086
0.254154 0.152102 0.110719
0.562493 0.198611 0.000000
0.913085 0.281010 0.000000
1.000000 0.524407 0.297368
1.000000 0.738766 0.610346
0.000000 0.256840 0.155276
0.000000 0.263676 0.162356
0.140871 0.283207 0.185672
0.330083 0.355962 0.179934
0.638666 0.416510 0.177615
0.958984 0.477058 0.188357
1.000000 0.624506 0.394049
1.000000 0.765621 0.635248
0.201907 0.611811 0.316655
0.254643 0.616693 0.324956
0.357671 0.628412 0.349615
0.472908 0.676753 0.327398
0.765621 0.749996 0.315923
1.000000 0.757809 0.407965
1.000000 0.789548 0.566400
1.000000 0.823240 0.692378
0.709957 0.913573 0.629389
0.715816 0.916503 0.627436
0.725582 0.921386 0.621088
0.757809 0.932616 0.611322
0.851072 0.954101 0.609857
1.000000 0.973632 0.656245
1.000000 0.931640 0.726558
1.000000 0.922362 0.791989
0.903807 1.000000 0.837888
0.904295 1.000000 0.837888
0.905272 1.000000 0.835447
0.910155 1.000000 0.832029
0.921874 1.000000 0.824704
0.960449 1.000000 0.813474
1.000000 1.000000 0.809567
1.000000 1.000000 0.890135
1.000000 1.000000 0.961913
1.000000 1.000000 0.961913
1.000000 1.000000 0.961913
1.000000 1.000000 0.962402
1.000000 1.000000 0.962890
1.000000 1.000000 0.962890
1.000000 1.000000 0.968750
1.000000 0.999023 0.986816
0.000000 0.001877 0.007355
0.000000 0.006973 0.027375
0.000000 0.018173 0.071717
0.159548 0.038697 0.155520
0.562005 0.000000 0.169924
0.898924 0.052064 0.000000
1.000000 0.458747 0.292973
1.000000 0.729000 0.613275
0.000000 0.015808 0.056580
0.000000 0.021653 0.067323
0.000000 0.036072 0.088624
0.186526 0.059052 0.169680
0.575189 0.000000 0.171389
0.902831 0.151858 0.000000
1.000000 0.478523 0.310552
1.000000 0.731929 0.616205
0.000000 0.082765 0.137819
0.000000 0.088319 0.141238
0.065492 0.104799 0.148196
0.243656 0.136599 0.194949
0.595697 0.173220 0.174075
0.921386 0.263676 0.073976
1.000000 0.520500 0.344488
1.000000 0.741207 0.623529
0.000000 0.264897 0.232792
0.000000 0.274174 0.239994
0.059358 0.294682 0.257572
0.314458 0.346685 0.286870
0.638666 0.413825 0.280278
0.961425 0.465095 0.261723
1.000000 0.621576 0.430426
1.000000 0.767575 0.647456
0.026642 0.626459 0.400153
0.128908 0.630365 0.405280
0.309819 0.640620 0.422370
0.502434 0.666499 0.472419
0.756344 0.749996 0.429938
1.000000 0.758297 0.476814
1.000000 0.790524 0.596674
1.000000 0.824704 0.702632
0.699214 0.915038 0.670405
0.712886 0.915526 0.675288
0.731929 0.916991 0.685054
0.772946 0.923827 0.698238
0.848142 0.949218 0.681147
0.999023 0.971679 0.703609
1.000000 0.934081 0.749020
1.000000 0.923339 0.800290
0.913085 1.000000 0.866209
0.912596 1.000000 0.864744
0.913085 1.000000 0.862303
0.916991 1.000000 0.856931
0.926268 1.000000 0.848630
0.959960 1.000000 0.833005
1.000000 1.000000 0.821775
1.000000 1.000000 0.895018
1.000000 1.000000 0.968261
1.000000 1.000000 0.968261
1.000000 1.000000 0.967773
1.000000 1.000000 0.968750
1.000000 1.000000 0.967773
1.000000 1.000000 0.968261
1.000000 1.000000 0.973144
1.000000 0.999023 0.988281
0.000000 0.000000 0.000000
0.000000 0.000000 0.000000
0.000000 0.016281 0.063905
0.026703 0.048768 0.195193
0.490242 0.103700 0.384771
0.934569 0.017304 0.352544
1.000000 0.457527 0.421637
1.000000 0.731441 0.644038
0.000000 0.013565 0.053254
0.000000 0.017029 0.066835
0.000000 0.026108 0.094240
0.093629 0.063966 0.217288
0.517082 0.130495 0.402106
0.939452 0.128054 0.355962
1.000000 0.474128 0.427497
1.000000 0.735836 0.648432
0.000000 0.067384 0.144656
0.000000 0.075990 0.157351
0.006012 0.096742 0.185428
0.167117 0.147585 0.248173
0.574212 0.206790 0.432380
0.948730 0.237186 0.358404
1.000000 0.515618 0.445808
1.000000 0.745602 0.654292
0.000000 0.281254 0.372564
0.000000 0.287114 0.377447
0.000000 0.302251 0.387701
0.311772 0.341070 0.404303
0.659663 0.392096 0.462409
0.962890 0.431647 0.394537
1.000000 0.614740 0.507805
1.000000 0.772457 0.676265
0.019883 0.639643 0.549310
0.061158 0.645014 0.553216
0.208133 0.656245 0.564446
0.444587 0.679683 0.586908
0.729976 0.742184 0.607904
0.989746 0.754391 0.597650
1.000000 0.787594 0.648920
1.000000 0.828611 0.727047
0.685542 0.916503 0.746090
0.695796 0.916991 0.746578
0.715816 0.917967 0.753414
0.767086 0.920897 0.770016
0.853025 0.935546 0.791989
0.992187 0.965820 0.788083
1.000000 0.935058 0.794919
1.000000 0.926268 0.819821
0.922362 0.999512 0.903319
0.925780 0.999512 0.904295
0.926757 0.999512 0.905272
0.933104 1.000000 0.906249
0.936522 1.000000 0.892576
0.960449 1.000000 0.870604
1.000000 1.000000 0.849119
1.000000 1.000000 0.908202
1.000000 0.999512 0.980468
1.000000 0.999512 0.980468
1.000000 0.999512 0.980468
1.000000 0.999512 0.980468
1.000000 0.999512 0.979980
1.000000 0.999512 0.979492
1.000000 0.999512 0.981445
0.999512 0.998535 0.992187
0.000000 0.000000 0.000000
0.000000 0.000000 0.000000
0.000000 0.012909 0.050629
0.000000 0.045899 0.180667
0.281498 0.119387 0.485359
0.965331 0.290532 0.725582
1.000000 0.514153 0.670405
1.000000 0.748531 0.721675
0.000000 0.009323 0.036591
0.000000 0.009079 0.035615
0.000000 0.015961 0.062623
0.000000 0.050477 0.199222
0.331548 0.135500 0.520500
0.972168 0.314458 0.731441
1.000000 0.527337 0.671870
1.000000 0.751461 0.722652
0.000000 0.034668 0.126589
0.000000 0.040528 0.141848
0.000000 0.056153 0.177859
0.073732 0.100649 0.260014
0.408453 0.206302 0.571771
0.986816 0.374517 0.743648
1.000000 0.563470 0.679194
1.000000 0.761715 0.727047
0.000000 0.233158 0.384527
0.000000 0.243168 0.397223
0.031128 0.266850 0.426764
0.257084 0.320317 0.488533
0.512688 0.416754 0.627436
0.993164 0.509758 0.753902
1.000000 0.641108 0.695796
1.000000 0.785641 0.742184
0.000000 0.637690 0.741207
0.000000 0.639643 0.741695
0.000000 0.649897 0.747555
0.330816 0.669917 0.757321
0.704585 0.717769 0.770993
0.958495 0.722164 0.745602
1.000000 0.779293 0.743648
1.000000 0.838865 0.780270
0.681147 0.918944 0.848630
0.690913 0.918944 0.849607
0.710933 0.919432 0.852537
0.751949 0.922850 0.858885
0.846677 0.928222 0.874022
0.964355 0.955566 0.888670
1.000000 0.939452 0.869627
1.000000 0.930175 0.854978
0.921874 0.999512 0.931640
0.923339 0.999512 0.931640
0.924804 0.999512 0.932128
0.931640 0.999023 0.934081
0.947753 0.999512 0.939941
0.967285 1.000000 0.928222
1.000000 1.000000 0.898924
1.000000 1.000000 0.937987
0.998047 0.997559 0.996582
0.998047 0.997559 0.996582
0.998047 0.997559 0.996582
0.998047 0.997559 0.996582
0.998535 0.998047 0.996094
0.999023 0.998047 0.995117
0.999023 0.998047 0.994141
0.998047 0.997559 0.997070
0.000000 0.000000 0.000000
0.000000 0.002899 0.011398
0.000000 0.015854 0.062226
0.000000 0.044892 0.176150
0.000000 0.124025 0.490730
0.681636 0.266361 0.833494
1.000000 0.624994 0.924804
1.000000 0.805173 0.865721
0.000000 0.004044 0.015869
0.000000 0.001053 0.004135
0.000000 0.017090 0.067079
0.000000 0.045380 0.178103
0.000000 0.129885 0.513664
0.716793 0.288090 0.850095
1.000000 0.635248 0.924315
1.000000 0.808591 0.867185
0.000000 0.028443 0.111574
0.000000 0.030243 0.118654
0.000000 0.031678 0.124331
0.000000 0.050233 0.197147
0.020813 0.137453 0.541497
0.768551 0.346441 0.875486
1.000000 0.663569 0.925292
1.000000 0.817380 0.869627
0.000000 0.116884 0.332525
0.000000 0.125124 0.348638
0.000000 0.146242 0.387457
0.061433 0.197147 0.470466
0.382330 0.312261 0.618647
0.831052 0.500496 0.898924
1.000000 0.728023 0.927733
1.000000 0.837888 0.876463
0.229129 0.554681 0.756344
0.255863 0.560540 0.760739
0.334966 0.575189 0.772457
0.464363 0.610834 0.794919
0.655268 0.678218 0.836912
0.869627 0.760739 0.912108
1.000000 0.832517 0.928710
1.000000 0.871580 0.884764
0.577630 0.901366 0.941405
0.586419 0.901366 0.941405
0.619623 0.902831 0.941405
0.686030 0.907713 0.942382
0.806638 0.916991 0.943847
0.937499 0.937987 0.948241
1.000000 0.935546 0.934081
1.000000 0.937987 0.914061
0.929198 0.997559 0.969726
0.930663 0.997559 0.969726
0.932616 0.998047 0.970214
0.937499 0.997559 0.971679
0.951171 0.997070 0.973144
0.974609 0.997070 0.976562
1.000000 1.000000 0.964843
1.000000 0.999512 0.978515
0.997559 0.997559 0.997559
0.997559 0.997559 0.997559
0.997559 0.997559 0.997559
0.997559 0.997559 0.997559
0.997559 0.997559 0.997559
0.997559 0.997559 0.997559
0.997559 0.997559 0.997559
0.997559 0.997559 0.997559
0.000000 0.000000 0.000000
0.000000 0.010651 0.041810
0.000000 0.038087 0.149416
0.000000 0.046540 0.182498
0.000000 0.118044 0.462898
0.323980 0.262943 0.844236
0.988281 0.483650 0.989258
1.000000 0.827634 0.989258
0.000000 0.000000 0.000000
0.000000 0.000000 0.000000
0.000000 0.027039 0.106081
0.000000 0.060639 0.237919
0.000000 0.131594 0.515129
0.371099 0.274662 0.858885
0.989258 0.496590 0.992187
1.000000 0.831052 0.989258
0.000000 0.021225 0.083253
0.000000 0.021347 0.083742
0.000000 0.017807 0.069886
0.000000 0.054353 0.213138
0.000000 0.131350 0.514153
0.438239 0.291508 0.876951
0.996582 0.532219 0.996582
1.000000 0.839353 0.990723
0.000000 0.075441 0.286137
0.000000 0.074891 0.285161
0.000000 0.085328 0.320317
0.000000 0.091249 0.344976
0.000000 0.140505 0.548821
0.526360 0.316411 0.893065
1.000000 0.626947 1.000000
1.000000 0.860349 0.992676
0.000000 0.326665 0.704585
0.000000 0.333257 0.711910
0.000000 0.350591 0.730465
0.217166 0.393805 0.769039
0.491707 0.488289 0.833982
0.769039 0.655756 0.901854
0.992187 0.795895 0.999023
1.000000 0.900389 0.997559
0.717769 0.837888 0.934569
0.724117 0.838865 0.934569
0.735348 0.842283 0.936034
0.764157 0.851072 0.938476
0.822751 0.871092 0.944823
0.904784 0.907713 0.959960
0.986328 0.936034 0.995605
1.000000 0.957519 0.999512
0.855467 0.983886 0.998535
0.856443 0.983886 0.998535
0.861814 0.984375 0.998535
0.874022 0.984863 0.998535
0.900877 0.986328 0.998047
0.951659 0.990723 0.998047
0.997559 0.997559 0.997559
0.997559 0.997559 0.997559
0.997559 0.997559 0.997559
0.997559 0.997559 0.997559
0.997559 0.997559 0.997559
0.997559 0.997559 0.997559
0.997559 0.997559 0.997559
0.997559 0.997559 0.997559
0.997559 0.997559 0.997559
0.997559 0.997559 0.997559
0.000000 0.000000 0.000000
0.000000 0.004486 0.017624
0.000000 0.211551 0.687495
0.000000 0.052216 0.204837
0.000000 0.107240 0.420417
0.000000 0.245365 0.822751
0.723140 0.402350 0.966796
1.000000 0.615717 1.000000
0.000000 0.000000 0.000000
0.000000 0.000000 0.000000
0.000000 0.040223 0.157839
0.000000 0.127565 0.490730
0.000000 0.133303 0.520500
0.000000 0.255131 0.838865
0.726558 0.404059 0.967773
1.000000 0.624994 1.000000
0.000000 0.013031 0.051118
0.000000 0.011795 0.046265
0.000000 0.013550 0.053162
0.000000 0.086000 0.337163
0.000000 0.164065 0.630365
0.000000 0.288090 0.882811
0.759274 0.420417 0.976562
1.000000 0.650385 1.000000
0.000000 0.059480 0.233402
0.000000 0.056092 0.219974
0.000000 0.062623 0.245853
0.000000 0.055451 0.217777
0.000000 0.150515 0.583978
0.000000 0.287602 0.882322
0.806149 0.450935 0.988281
1.000000 0.714351 1.000000
0.000000 0.197879 0.641108
0.000000 0.187747 0.624018
0.000000 0.196414 0.642084
0.000000 0.224369 0.692866
0.004211 0.231327 0.717769
0.169192 0.295903 0.889647
0.849119 0.506828 0.998047
1.000000 0.821775 1.000000
0.501961 0.626947 0.918944
0.509758 0.630365 0.919432
0.531731 0.637201 0.920897
0.578607 0.656245 0.924804
0.673823 0.697261 0.934081
0.809567 0.775876 0.955077
0.937499 0.889647 0.986816
1.000000 0.938964 1.000000
0.905760 0.953124 0.997070
0.906249 0.953613 0.997070
0.908202 0.953613 0.997070
0.912108 0.954589 0.997070
0.926757 0.960937 0.997070
0.961913 0.976562 0.996094
0.998047 0.996582 0.997559
0.997559 0.997559 0.997559
0.997559 0.997559 0.997559
0.997559 0.997559 0.997559
0.997559 0.997559 0.997559
0.997559 0.997559 0.997559
0.997559 0.997559 0.997559
0.997559 0.997559 0.997559
0.997559 0.997559 0.997559
0.997559 0.997559 0.997559
