lut/DFC/FOREST_LUT_mountain_look_v1_srgb.2013.07.27.3dl
# Generated by Foundry::LUT
0 33 66 99 132 165 198 231 264 297 330 363 396 429 462 495 528 561 594 627 660 693 726 759 792 825 858 891 924 957 990 1023 
0 0 0
0 0 0
0 0 0
0 0 0
0 1 3
0 4 18
0 8 33
0 12 51
0 16 68
0 20 88
0 26 113
0 33 144
0 41 179
0 50 221
0 61 268
0 73 322
0 86 380
0 101 444
0 116 510
0 132 577
0 149 641
0 166 702
0 186 761
0 206 813
0 225 856
0 238 881
0 241 886
0 244 892
0 247 897
0 251 902
0 253 908
0 257 913
0 0 0
0 0 0
0 0 0
0 0 0
0 2 5
0 5 21
0 9 37
0 13 54
0 17 73
0 22 94
0 28 121
0 35 154
0 44 192
0 53 236
0 65 287
0 78 343
0 92 406
0 107 470
0 122 537
0 139 604
0 157 671
0 175 731
0 195 785
0 216 835
0 234 873
0 240 884
0 243 889
0 246 894
0 249 900
0 252 905
0 255 911
0 259 916
0 0 0
0 0 0
0 0 0
0 0 0
0 2 8
0 6 24
0 10 40
0 14 59
0 18 78
0 23 101
0 29 129
0 37 163
0 47 205
0 57 253
0 70 307
0 83 366
0 98 431
0 113 498
0 129 565
0 146 632
0 165 697
0 185 758
0 205 809
0 225 855
0 239 881
0 241 887
0 244 892
0 247 898
0 251 903
0 254 908
0 257 913
0 260 919
0 0 0
0 0 0
0 0 0
0 0 0
0 4 11
0 7 27
0 11 44
0 15 63
0 19 83
0 25 109
0 32 140
0 40 175
0 49 218
0 61 269
0 74 325
0 88 388
0 103 455
0 119 523
0 136 593
0 153 658
0 172 722
0 193 781
0 214 831
0 234 872
0 240 884
0 243 889
0 246 894
0 249 900
0 252 905
0 255 911
0 259 916
0 262 922
0 13 0
0 13 0
0 13 0
0 12 4
0 13 14
0 16 30
0 18 48
0 19 67
0 22 89
0 27 117
0 35 152
0 43 189
0 53 232
0 65 285
0 78 344
0 93 409
0 109 479
0 125 547
0 143 618
0 161 685
0 180 746
0 201 801
0 223 850
0 238 880
0 241 886
0 244 891
0 247 897
0 250 902
0 253 907
0 257 913
0 260 918
0 264 925
0 31 0
0 32 0
0 32 0
0 32 1
0 31 17
0 30 33
0 31 51
0 31 70
0 31 94
0 34 124
0 40 161
0 48 205
0 57 253
0 69 304
0 82 363
0 97 430
0 114 502
0 131 571
0 149 641
0 168 708
0 188 768
0 210 821
0 231 867
0 239 883
0 242 888
0 245 894
0 248 899
0 252 905
0 255 910
0 258 915
0 262 921
0 266 927
0 51 0
0 52 0
0 53 0
0 53 0
0 53 12
0 52 33
0 50 54
0 48 74
0 47 99
0 48 131
0 52 171
0 57 217
0 65 272
0 75 328
0 88 387
0 103 453
0 119 523
0 137 594
0 155 664
0 175 730
0 196 789
0 218 839
0 236 876
0 241 885
0 244 891
0 247 896
0 250 901
0 253 907
0 256 912
0 260 918
0 263 924
0 267 930
0 74 0
0 75 0
0 76 0
0 77 0
0 77 1
0 76 29
0 75 53
0 72 77
0 70 105
0 71 139
0 72 180
0 76 230
0 80 287
0 88 351
0 96 415
0 109 480
0 125 550
0 143 618
0 162 686
0 182 750
0 204 808
0 226 857
0 239 882
0 242 887
0 245 893
0 248 898
0 251 904
0 254 909
0 257 914
0 261 920
0 265 926
0 269 933
0 101 0
0 103 0
0 105 0
0 106 0
0 107 0
0 107 7
0 106 47
0 104 77
0 102 109
0 101 145
0 104 189
0 105 242
0 108 302
0 110 368
0 117 442
0 121 510
0 133 577
0 150 646
0 169 712
0 190 771
0 212 826
0 233 871
0 240 884
0 243 889
0 246 895
0 249 900
0 253 906
0 256 911
0 259 917
0 263 923
0 267 929
0 271 936
0 137 0
0 139 0
0 142 0
0 144 0
0 146 0
0 148 0
0 147 37
0 146 74
0 144 111
0 142 152
0 143 198
0 146 253
0 147 316
0 150 386
0 148 461
0 151 537
0 150 606
0 159 671
0 177 735
0 198 794
0 220 844
0 237 878
0 241 886
0 244 892
0 247 897
0 251 903
0 254 908
0 257 914
0 261 920
0 265 926
0 269 932
0 273 939
0 185 0
0 187 0
0 189 0
0 192 0
0 195 0
0 197 0
0 199 10
0 198 67
0 197 110
0 194 156
0 193 206
0 196 264
0 199 329
0 199 402
0 200 479
0 194 557
0 192 634
0 183 700
0 190 759
0 208 814
0 229 862
0 239 882
0 242 888
0 245 894
0 249 899
0 252 905
0 255 911
0 259 916
0 262 922
0 267 929
0 271 935
0 275 942
0 245 0
0 246 0
0 248 0
0 252 0
0 256 0
0 259 0
0 262 0
0 264 45
0 263 107
0 261 157
0 258 213
0 258 274
0 260 342
0 262 416
0 259 496
0 256 575
0 245 653
0 239 726
0 223 784
0 225 834
0 238 874
0 242 885
0 244 891
0 247 896
0 250 902
0 253 907
0 257 913
0 260 919
0 264 925
0 269 932
0 273 939
0 278 946
0 317 0
0 318 0
0 320 0
0 324 0
0 328 0
0 332 0
0 336 0
0 340 0
0 341 92
0 340 155
0 338 215
0 335 281
0 333 352
0 335 430
0 334 510
0 326 592
0 319 670
0 303 743
0 292 804
0 267 854
0 255 882
0 248 887
0 247 893
0 249 899
0 252 904
0 255 910
0 258 915
0 262 921
0 266 928
0 271 934
0 275 942
0 281 950
0 400 0
0 401 0
0 403 0
0 406 0
0 409 0
0 414 0
0 419 0
0 424 0
0 428 56
0 429 143
0 427 214
0 426 284
0 422 361
0 419 442
0 416 523
0 411 605
0 398 685
0 387 756
0 365 819
0 349 870
0 301 888
0 269 891
0 258 895
0 255 901
0 255 907
0 257 912
0 260 918
0 264 925
0 268 931
0 272 938
0 278 945
0 283 953
0 491 0
0 494 0
0 496 0
0 497 0
0 500 0
0 505 0
0 510 0
0 515 0
0 518 16
0 523 125
0 525 204
0 523 283
0 522 362
0 517 449
0 510 535
0 501 617
0 491 698
0 473 768
0 458 829
0 431 879
0 394 897
0 328 898
0 287 900
0 271 905
0 264 909
0 262 915
0 263 921
0 266 927
0 270 934
0 275 941
0 280 948
0 286 957
0 587 0
0 588 0
0 591 0
0 593 0
0 594 0
0 597 0
0 602 0
0 607 0
0 612 2
0 615 93
0 621 193
0 622 273
0 620 358
0 617 444
0 614 540
0 601 628
0 587 706
0 572 775
0 550 836
0 529 885
0 482 905
0 435 911
0 361 909
0 311 911
0 288 914
0 277 919
0 272 924
0 272 931
0 274 938
0 278 945
0 283 953
0 288 959
0 683 0
0 683 0
0 684 0
0 687 0
0 687 0
0 690 0
0 693 0
0 697 0
0 701 0
0 705 53
0 708 184
0 712 268
0 713 352
0 711 441
0 708 533
0 705 630
0 686 713
0 667 783
0 649 841
0 624 890
0 587 913
0 532 923
0 484 927
0 401 924
0 340 922
0 311 925
0 293 929
0 285 935
0 282 941
0 283 949
0 287 957
0 288 959
3 768 0
0 769 0
0 771 0
0 773 0
0 774 0
0 775 0
0 777 0
0 779 0
0 782 0
0 784 65
0 788 191
0 791 271
0 793 353
0 794 439
0 792 529
0 790 619
0 783 715
0 762 788
0 739 845
0 717 892
0 678 920
0 638 935
0 585 943
0 535 946
0 447 939
0 375 935
0 338 937
0 314 941
0 301 946
0 296 953
0 295 960
0 291 960
208 843 0
208 843 0
208 844 0
196 845 0
196 845 0
186 848 0
168 849 0
157 850 0
148 850 0
110 852 127
63 855 214
6 857 293
0 859 366
0 860 449
0 859 533
0 856 616
0 854 702
0 849 788
0 825 848
0 799 893
0 771 924
0 731 945
0 693 958
0 639 963
0 589 965
0 496 957
0 416 951
0 371 951
0 341 954
0 322 960
0 311 963
0 302 961
400 904 0
393 904 0
391 905 0
389 906 0
389 906 0
380 907 0
381 907 0
368 908 0
359 908 43
351 908 186
322 908 261
287 910 326
255 911 396
211 911 467
155 911 545
142 909 623
94 907 697
70 903 771
19 899 845
1 875 894
0 846 928
0 818 952
0 779 967
0 743 977
0 690 983
0 638 985
0 544 976
0 459 968
0 409 967
0 372 970
0 348 967
0 329 965
532 957 0
526 957 0
523 957 0
526 957 0
523 957 0
519 958 0
517 957 21
509 957 99
509 957 183
501 956 254
496 955 317
482 954 378
463 953 437
448 952 501
434 950 566
427 948 638
426 946 706
405 944 768
380 941 828
346 937 890
319 915 930
248 888 956
145 862 974
24 825 986
0 788 995
0 735 1000
0 684 1003
0 589 995
0 504 987
0 452 984
0 415 978
0 383 973
642 998 0
639 998 0
637 998 0
639 997 10
635 998 46
635 997 117
633 996 183
624 996 229
622 995 279
618 993 327
611 992 380
610 989 435
603 986 489
586 984 539
576 982 598
572 979 656
571 976 718
580 972 776
567 971 827
553 968 877
535 964 928
522 945 958
473 922 978
411 897 992
321 862 1002
183 824 1010
0 773 1015
0 722 1017
0 632 1011
0 556 1001
0 510 993
0 467 986
730 1023 191
727 1023 202
727 1023 217
727 1023 237
728 1023 254
724 1023 277
724 1023 303
721 1022 331
719 1021 365
714 1019 406
713 1017 446
709 1016 492
703 1013 540
699 1009 589
693 1005 634
687 1002 685
681 998 734
684 995 787
697 991 836
685 990 877
676 988 916
666 984 955
648 968 979
606 947 995
552 921 1006
477 887 1015
393 849 1021
277 800 1023
28 757 1023
0 693 1021
0 621 1011
0 572 1003
805 1023 335
804 1023 341
804 1023 348
803 1023 357
804 1023 370
803 1023 385
799 1023 403
798 1023 423
796 1023 450
792 1023 477
790 1023 512
787 1023 547
783 1023 591
782 1023 633
777 1022 676
770 1021 713
766 1017 757
765 1013 798
771 1009 843
782 1006 885
776 1004 916
769 1003 946
762 1000 976
743 986 995
696 965 1008
642 939 1017
572 904 1023
496 867 1023
424 833 1023
367 815 1023
250 756 1023
49 686 1019
849 1023 439
849 1023 444
849 1023 450
849 1023 455
848 1023 465
849 1023 474
847 1023 489
844 1023 504
843 1023 521
843 1023 546
840 1023 569
839 1023 600
835 1023 631
835 1023 669
833 1023 706
828 1023 743
825 1023 777
823 1023 814
824 1023 849
830 1021 886
842 1018 919
840 1016 944
834 1015 966
828 1013 992
806 1000 1008
759 979 1017
702 952 1023
634 916 1023
597 902 1023
560 886 1023
518 868 1023
436 813 1023
873 1023 522
873 1023 524
873 1023 529
873 1023 534
872 1023 539
872 1023 548
870 1023 556
868 1023 568
868 1023 583
867 1023 599
866 1023 619
866 1023 640
864 1023 668
862 1023 695
860 1023 728
860 1023 759
859 1023 793
858 1023 822
857 1023 854
862 1023 885
868 1023 915
880 1023 942
878 1023 962
874 1023 982
870 1022 1004
843 1009 1016
792 988 1023
734 960 1023
715 954 1023
695 948 1023
664 934 1023
633 918 1023
884 1023 585
884 1023 587
885 1023 590
885 1023 593
885 1023 597
884 1023 603
882 1023 609
881 1023 618
880 1023 627
881 1023 640
879 1023 655
877 1023 670
878 1023 691
877 1023 714
876 1023 738
875 1023 766
876 1023 795
876 1023 825
878 1023 852
877 1023 878
881 1023 904
887 1023 929
899 1023 955
899 1023 973
895 1023 991
891 1023 1011
862 1015 1021
819 998 1023
806 998 1023
789 994 1023
773 990 1023
748 977 1023
895 1023 633
895 1023 635
895 1023 637
895 1023 640
895 1023 643
894 1023 646
894 1023 650
892 1023 655
891 1023 661
891 1023 670
892 1023 683
890 1023 694
890 1023 711
889 1023 728
887 1023 748
890 1023 771
892 1023 797
893 1023 821
897 1023 850
898 1023 872
901 1023 896
907 1023 921
916 1023 947
927 1023 971
926 1023 986
921 1023 1002
915 1023 1019
894 1023 1023
883 1023 1023
871 1023 1023
855 1023 1023
838 1022 1023
979 1023 707
979 1023 708
979 1023 710
979 1023 711
