lut/DFC/FOREST_SHOW_LUT_v1_REC709.2013.07.21.cube
TITLE "Generated by Foundry::LUT"
LUT_3D_SIZE 5
DOMAIN_MIN 0.000000 0.000000 0.000000
DOMAIN_MAX 0.903226 0.903226 0.903226
0.000000 0.000992 0.003906
0.019165 0.006241 0.026337
0.341314 0.000000 0.000000
0.962402 0.210208 0.000000
1.000000 0.727535 0.596674
0.000000 0.060548 0.054963
0.043122 0.079835 0.063050
0.387945 0.152224 0.000000
0.983398 0.302251 0.000000
1.000000 0.736812 0.605463
0.065003 0.404547 0.178103
0.206424 0.425055 0.207889
0.541985 0.550774 0.156130
1.000000 0.626947 0.301762
1.000000 0.789059 0.654292
0.775876 0.958495 0.664546
0.784176 0.961913 0.659175
0.840818 0.974609 0.658198
1.000000 0.992187 0.710445
1.000000 0.953124 0.816892
1.000000 1.000000 0.958984
1.000000 1.000000 0.959960
1.000000 1.000000 0.959960
1.000000 1.000000 0.962890
1.000000 0.999023 0.985840
0.000000 0.003052 0.011978
0.000000 0.013321 0.052369
0.387213 0.000000 0.163577
0.971679 0.185550 0.000000
1.000000 0.729000 0.609857
0.000000 0.058900 0.106996
0.028183 0.074464 0.114137
0.447761 0.126833 0.172732
0.988769 0.286381 0.029694
1.000000 0.736324 0.615228
0.000000 0.427008 0.281743
0.110719 0.444343 0.299321
0.533196 0.550286 0.318853
1.000000 0.625483 0.372320
1.000000 0.790524 0.665034
0.791501 0.950683 0.735836
0.807614 0.951659 0.744137
0.849119 0.967773 0.727047
1.000000 0.990234 0.747555
1.000000 0.953124 0.823240
1.000000 1.000000 0.966308
1.000000 1.000000 0.966308
1.000000 1.000000 0.965820
1.000000 1.000000 0.967773
1.000000 0.999023 0.987793
0.000000 0.000000 0.000000
0.000000 0.009125 0.035828
0.140017 0.078248 0.316655
1.000000 0.196780 0.509270
1.000000 0.736324 0.673823
0.000000 0.031739 0.109804
0.000000 0.048280 0.144900
0.244877 0.142214 0.381842
1.000000 0.281498 0.515129
1.000000 0.748531 0.681147
0.000000 0.449470 0.558587
0.000000 0.462898 0.567864
0.501961 0.526848 0.596185
1.000000 0.586908 0.561517
1.000000 0.801755 0.722652
0.778317 0.949218 0.833982
0.792966 0.949706 0.837400
0.855955 0.953124 0.856443
0.996582 0.981933 0.866209
1.000000 0.957031 0.858885
1.000000 0.998535 0.989746
1.000000 0.999023 0.989258
1.000000 0.999023 0.988281
1.000000 0.999023 0.987305
0.999023 0.998047 0.994629
0.000000 0.000000 0.000000
0.000000 0.015595 0.061189
0.000000 0.077333 0.303716
0.783688 0.325689 0.892088
1.000000 0.809567 0.895994
0.000000 0.020020 0.078553
0.000000 0.018433 0.072328
0.000000 0.079957 0.314214
0.835447 0.375494 0.912108
1.000000 0.817380 0.897459
0.000000 0.259281 0.548821
0.000000 0.282231 0.581048
0.327398 0.378180 0.687007
0.901366 0.645014 0.938964
1.000000 0.858885 0.909667
0.700679 0.935058 0.963378
0.720211 0.936522 0.963867
0.804196 0.941405 0.964355
0.963867 0.963378 0.969238
1.000000 0.963867 0.947753
0.997559 0.997559 0.997559
0.997559 0.997559 0.997559
0.997559 0.997559 0.997559
0.997559 0.997559 0.997559
0.997559 0.997559 0.997559
0.000000 0.000000 0.000000
0.000000 0.179568 0.637690
0.000000 0.069886 0.274174
0.000000 0.289311 0.884764
1.000000 0.615717 1.000000
0.000000 0.007004 0.027512
0.000000 0.008072 0.031708
0.000000 0.134890 0.526360
0.150759 0.299809 0.894530
1.000000 0.641596 1.000000
0.000000 0.109255 0.417975
0.000000 0.106020 0.408698
0.000000 0.120668 0.466316
0.281498 0.305913 0.899901
1.000000 0.763668 1.000000
0.670893 0.764157 0.944335
0.682124 0.770504 0.945312
0.742184 0.794919 0.951659
0.883299 0.871580 0.975586
1.000000 0.965331 1.000000
0.997559 0.997559 0.997559
0.997559 0.997559 0.997559
0.997559 0.997559 0.997559
0.997559 0.997559 0.997559
0.997559 0.997559 0.997559
