lut/DFC/FOREST_LUT_stage_look_v1_srgb.2013.07.27.3dl
# Generated by Foundry::LUT
0 33 66 99 132 165 198 231 264 297 330 363 396 429 462 495 528 561 594 627 660 693 726 759 792 825 858 891 924 957 990 1023 
0 0 0
0 0 0
0 0 0
0 0 0
0 0 0
0 0 0
0 0 0
0 0 0
0 0 0
0 1 4
0 3 13
0 6 23
0 8 32
0 10 43
0 13 54
0 15 67
0 19 81
0 23 100
0 28 124
0 35 154
0 42 186
0 51 226
0 63 277
0 76 337
0 90 398
0 106 466
0 125 546
0 146 630
0 169 709
0 195 785
0 221 846
0 239 882
0 0 0
0 0 0
0 0 0
0 0 0
0 0 0
0 0 0
0 0 0
0 0 0
0 1 3
0 3 11
0 5 20
0 7 31
0 10 42
0 13 54
0 15 67
0 19 81
0 23 101
0 28 124
0 35 152
0 43 188
0 53 233
0 63 279
0 76 335
0 91 403
0 108 476
0 125 548
0 145 629
0 169 709
0 193 782
0 221 847
0 239 882
0 243 889
0 0 0
0 0 0
0 0 0
0 0 0
0 0 0
0 0 0
0 0 0
0 0 0
0 2 7
0 5 19
0 7 28
0 9 39
0 12 52
0 15 65
0 18 80
0 23 99
0 28 123
0 35 152
0 42 186
0 52 229
0 64 282
0 77 340
0 91 403
0 107 474
0 126 551
0 147 634
0 169 709
0 194 784
0 220 845
0 239 882
0 243 889
0 247 896
0 0 0
0 0 0
0 0 0
0 0 0
0 0 0
0 0 0
0 0 0
0 1 1
0 3 11
0 6 23
0 8 36
0 11 48
0 14 61
0 17 76
0 22 94
0 27 118
0 33 147
0 41 182
0 51 224
0 62 272
0 75 332
0 91 401
0 107 474
0 124 545
0 144 622
0 166 702
0 190 772
0 216 836
0 238 880
0 242 888
0 246 895
0 251 902
0 0 0
0 0 0
0 0 0
0 0 0
0 0 0
0 0 0
0 0 0
0 1 4
0 4 14
0 6 27
0 10 41
0 13 55
0 16 71
0 20 88
0 25 110
0 31 138
0 39 173
0 48 213
0 60 264
0 73 321
0 87 386
0 104 460
0 123 540
0 142 616
0 163 690
0 185 760
0 212 827
0 236 875
0 241 886
0 245 893
0 249 901
0 254 908
0 0 0
0 0 0
0 0 0
0 0 0
0 0 0
0 0 0
0 0 0
0 2 7
0 5 19
0 7 31
0 11 46
0 14 62
0 18 79
0 23 100
0 29 128
0 37 161
0 46 201
0 56 247
0 69 304
0 83 368
0 100 440
0 117 516
0 137 597
0 159 679
0 183 752
0 207 815
0 233 870
0 240 885
0 244 892
0 248 899
0 253 907
0 258 914
0 0 0
0 0 0
0 0 0
0 0 0
0 0 0
0 0 0
0 1 2
0 4 11
0 6 23
0 9 37
0 12 52
0 16 68
0 20 88
0 26 112
0 32 141
0 42 183
0 52 231
0 64 284
0 78 345
0 94 416
0 112 494
0 131 572
0 151 650
0 175 729
0 200 799
0 227 859
0 239 883
0 243 890
0 247 898
0 252 905
0 256 912
0 262 921
0 10 0
0 11 0
0 11 0
0 11 0
0 12 0
0 11 2
0 11 7
0 13 16
0 14 28
0 15 42
0 16 58
0 18 76
0 23 98
0 29 127
0 36 159
0 45 199
0 57 253
0 73 321
0 88 391
0 106 466
0 125 546
0 145 628
0 167 705
0 191 776
0 218 840
0 239 881
0 242 888
0 246 895
0 250 902
0 255 911
0 260 919
0 266 927
0 28 0
0 28 0
0 29 0
0 29 0
0 30 0
0 30 0
0 30 9
0 29 20
0 29 33
0 28 48
0 27 65
0 26 84
0 29 110
0 34 142
0 42 183
0 51 226
0 63 278
0 78 344
0 96 425
0 118 517
0 138 601
0 160 680
0 184 757
0 210 822
0 235 874
0 241 886
0 245 893
0 249 900
0 253 908
0 258 915
0 264 925
0 270 934
0 49 0
0 49 0
0 50 0
0 50 0
0 51 0
0 52 0
0 52 5
0 52 21
0 51 37
0 49 54
0 45 71
0 42 93
0 41 122
0 44 159
0 50 204
0 60 260
0 71 314
0 85 378
0 103 456
0 124 545
0 148 639
0 175 731
0 201 801
0 229 863
0 240 884
0 244 891
0 248 898
0 253 906
0 257 914
0 262 921
0 268 931
0 275 941
0 73 0
0 74 0
0 74 0
0 75 0
0 76 0
0 76 0
0 77 0
0 77 14
0 77 36
0 76 56
0 73 78
0 68 104
0 66 136
0 65 177
0 68 229
0 74 289
0 85 359
0 97 425
0 113 498
0 134 584
0 157 672
0 185 758
0 216 835
0 239 882
0 243 889
0 247 896
0 251 904
0 256 911
0 261 920
0 266 928
0 272 938
0 280 949
0 105 0
0 106 0
0 106 0
0 107 0
0 109 0
0 110 0
0 111 0
0 113 0
0 113 28
0 112 54
0 111 82
0 108 114
0 103 151
0 102 197
0 100 253
0 102 321
0 106 396
0 117 481
0 128 553
0 145 628
0 169 711
0 196 789
0 227 858
0 240 885
0 245 893
0 250 901
0 254 909
0 259 917
0 265 926
0 271 935
0 278 946
0 286 958
0 152 0
0 153 0
0 153 0
0 154 0
0 156 0
0 158 0
0 160 0
0 162 0
0 164 3
0 164 50
0 163 85
0 162 123
0 159 166
0 155 217
0 153 280
0 149 352
0 150 436
0 148 523
0 157 613
0 165 685
0 184 755
0 211 824
0 236 877
0 242 888
0 247 896
0 252 905
0 257 914
0 263 923
0 269 932
0 276 942
0 284 955
0 287 959
0 218 0
0 219 0
0 220 0
0 221 0
0 222 0
0 225 0
0 228 0
0 231 0
0 233 0
0 236 22
0 236 84
0 235 130
0 233 181
0 231 238
0 226 307
0 222 385
0 213 474
0 209 567
0 201 657
0 206 742
0 210 806
0 229 860
0 240 884
0 244 892
0 249 900
0 254 908
0 259 917
0 266 928
0 274 939
0 282 951
0 287 959
0 287 959
0 307 0
0 308 0
0 309 0
0 310 0
0 312 0
0 314 0
0 318 0
0 322 0
0 325 0
0 329 0
0 332 71
0 332 133
0 332 191
0 329 258
0 326 333
0 316 419
0 308 512
0 291 607
0 281 700
0 264 782
0 265 851
0 252 883
0 246 889
0 248 896
0 252 904
0 257 913
0 262 922
0 269 932
0 277 944
0 286 958
0 287 959
0 287 959
0 418 0
0 419 0
0 421 0
0 422 0
0 424 0
0 426 0
0 428 0
0 433 0
0 439 0
0 442 0
0 447 8
0 452 119
0 452 196
0 451 272
0 446 358
0 442 451
0 423 546
0 406 643
0 382 736
0 363 816
0 338 879
0 306 893
0 268 897
0 256 902
0 257 909
0 261 918
0 266 927
0 273 938
0 281 950
0 288 959
0 288 959
0 288 959
0 547 0
0 550 0
0 551 0
0 553 0
0 553 0
0 558 0
0 560 0
0 561 0
0 568 0
0 573 0
0 578 0
0 581 94
0 587 189
0 586 278
0 585 369
0 582 472
0 569 579
0 542 678
0 516 767
0 481 843
0 449 897
0 387 905
0 343 909
0 291 912
0 271 916
0 269 924
0 272 933
0 278 944
0 286 957
0 288 959
0 288 959
0 288 959
0 683 0
0 685 0
0 686 0
0 688 0
0 687 0
0 690 0
0 693 0
0 694 0
0 700 0
0 704 0
0 708 0
0 713 41
0 716 185
0 722 277
0 721 378
0 720 480
0 713 597
0 698 705
0 660 792
0 624 864
0 573 909
0 513 922
0 444 926
0 392 929
0 322 929
0 290 933
0 285 941
0 287 952
0 291 960
0 290 960
0 289 960
0 289 960
0 807 0
0 807 0
0 809 0
0 810 0
0 810 0
0 812 0
0 813 0
0 817 0
0 818 0
0 820 0
0 824 0
0 828 35
0 832 196
0 835 296
0 837 391
0 835 497
0 834 602
0 827 715
0 806 811
0 759 880
0 712 921
0 646 942
0 585 951
0 513 952
0 451 954
0 364 951
0 318 954
0 308 963
0 300 963
0 296 961
0 293 961
0 291 960
98 904 0
98 905 0
100 906 0
94 907 0
88 907 0
88 908 0
77 909 0
71 911 0
66 912 0
54 914 0
48 914 0
12 917 136
0 919 247
0 919 335
0 920 429
0 921 523
0 918 622
0 914 715
0 909 814
0 886 891
0 834 935
0 783 961
0 720 973
0 660 981
0 583 982
0 515 982
0 415 977
0 355 971
0 330 968
0 315 966
0 306 964
0 300 963
372 981 0
372 981 0
368 981 0
364 981 0
366 982 0
365 983 0
360 984 0
366 984 0
361 985 0
368 984 0
359 985 113
365 983 249
346 983 319
331 982 400
317 981 479
325 978 568
341 976 654
346 971 735
317 969 808
256 964 887
254 941 946
221 897 976
181 849 992
61 785 1002
0 723 1008
0 643 1009
0 589 1005
0 490 990
0 409 980
0 370 976
0 344 972
0 327 970
559 1023 0
562 1023 0
558 1023 0
560 1023 0
561 1023 0
558 1023 0
556 1023 0
555 1023 20
554 1023 103
552 1023 193
556 1023 269
552 1023 339
556 1023 412
551 1022 475
549 1020 546
552 1017 615
564 1012 692
583 1008 766
589 1003 829
580 1001 885
567 997 942
556 977 982
524 939 1003
471 888 1015
386 828 1022
298 772 1023
248 733 1022
182 691 1017
0 584 1003
0 486 992
0 434 987
0 394 983
681 1023 63
679 1023 63
681 1023 65
682 1023 79
682 1023 103
681 1023 146
680 1023 187
678 1023 230
680 1023 275
677 1023 324
679 1023 374
684 1023 430
683 1023 488
689 1023 551
686 1023 605
686 1023 665
689 1023 724
702 1023 787
729 1023 848
736 1023 895
730 1022 934
722 1020 975
706 1002 1007
657 961 1021
588 909 1023
552 878 1023
537 862 1023
506 827 1023
472 790 1023
391 685 1014
317 581 1004
255 518 1000
739 1023 241
741 1023 251
739 1023 259
743 1023 273
740 1023 286
739 1023 304
740 1023 326
741 1023 350
739 1023 379
736 1023 412
738 1023 452
741 1023 494
741 1023 542
743 1023 591
749 1023 647
749 1023 692
755 1023 744
763 1023 795
779 1023 846
800 1023 894
813 1023 929
807 1023 960
802 1023 995
773 1016 1020
716 977 1023
713 971 1023
705 957 1023
697 942 1023
678 912 1023
654 879 1023
585 783 1020
522 680 1014
763 1023 363
764 1023 369
763 1023 377
765 1023 383
765 1023 392
766 1023 404
768 1023 420
769 1023 438
770 1023 459
775 1023 485
776 1023 513
781 1023 548
785 1023 584
790 1023 627
797 1023 669
805 1023 719
811 1023 761
821 1023 807
831 1023 849
847 1023 892
869 1023 933
875 1023 963
868 1023 989
857 1023 1019
836 1023 1023
832 1023 1023
829 1023 1023
819 1021 1023
814 1009 1023
803 984 1023
786 956 1023
737 869 1023
952 1023 519
953 1023 522
953 1023 528
953 1023 533
952 1023 538
952 1023 547
952 1023 556
951 1023 570
952 1023 585
952 1023 602
951 1023 625
952 1023 648
950 1023 680
950 1023 709
949 1023 748
948 1023 783
951 1023 824
950 1023 856
947 1023 890
950 1023 922
954 1023 957
967 1023 989
965 1023 1008
953 1022 1022
952 1022 1022
951 1022 1022
948 1022 1022
945 1022 1022
938 1022 1022
929 1022 1022
908 1023 1023
891 1015 1023
1023 1023 645
1023 1023 646
1023 1023 650
1023 1023 654
1023 1023 658
1023 1023 664
1023 1023 670
1023 1023 678
1023 1023 689
1023 1023 703
1023 1023 718
1023 1023 736
1023 1023 757
1023 1023 783
1023 1023 807
1023 1023 838
1023 1023 866
1023 1023 898
1023 1023 925
1023 1023 954
1023 1023 982
1020 1023 1005
1018 1021 1019
1017 1021 1021
1017 1021 1021
1017 1021 1021
1017 1021 1021
1017 1021 1021
1015 1021 1021
1011 1021 1021
1008 1021 1021
998 1021 1021
1023 1023 753
1023 1023 756
1023 1023 757
1023 1023 760
1023 1023 762
1023 1023 766
1023 1023 771
1023 1023 776
1023 1023 784
1023 1023 792
1023 1023 804
1023 1023 817
1023 1023 832
1023 1023 849
1023 1023 868
1023 1023 888
1023 1023 913
1023 1023 937
1023 1023 963
1023 1023 985
1023 1023 1005
1023 1022 1018
1021 1021 1021
1021 1021 1021
1021 1021 1021
1021 1021 1021
1021 1021 1021
1021 1021 1021
1021 1021 1021
1021 1021 1021
1021 1021 1021
1021 1021 1021
1023 1023 848
1023 1023 850
1023 1023 851
1023 1023 851
