lut/DFC/FOREST_SHOW_LUT_v1_REC709.2013.07.21.cube
TITLE "Generated by Foundry::LUT"
LUT_3D_SIZE 32
0.000000 0.000992 0.003906
0.000000 0.001419 0.005539
0.000000 0.001892 0.007416
0.000000 0.002731 0.010697
0.000000 0.004608 0.018082
0.000000 0.006073 0.023819
0.001862 0.006317 0.025162
0.019165 0.006241 0.026337
0.039612 0.003738 0.029282
0.074464 0.000000 0.035187
0.108949 0.000000 0.030625
0.144411 0.000000 0.007477
0.192752 0.000000 0.000000
0.256107 0.000000 0.000000
0.341314 0.000000 0.000000
0.437751 0.000000 0.000000
0.506828 0.000000 0.000000
0.593744 0.000000 0.000000
0.698238 0.011582 0.000000
0.792966 0.056458 0.000000
0.875975 0.136233 0.000000
0.962402 0.210208 0.000000
1.000000 0.285405 0.000000
1.000000 0.371588 0.007279
1.000000 0.461921 0.200198
1.000000 0.552239 0.344976
1.000000 0.631830 0.455085
1.000000 0.688960 0.538567
1.000000 0.727535 0.596674
1.000000 0.800290 0.690913
1.000000 0.866697 0.775387
1.000000 0.924315 0.844236
0.000000 0.002655 0.010422
0.000000 0.002609 0.010239
0.000000 0.003311 0.013001
0.000000 0.004089 0.016068
0.000000 0.005432 0.021332
0.000000 0.006561 0.025788
0.005737 0.006653 0.026673
0.022827 0.006775 0.027787
0.043488 0.003876 0.031037
0.078126 0.000000 0.036713
0.110292 0.000000 0.032471
0.147097 0.000000 0.011841
0.196414 0.000000 0.000000
0.262455 0.000000 0.000000
0.345953 0.000000 0.000000
0.440436 0.000000 0.000000
0.508293 0.000000 0.000000
0.596185 0.000000 0.000000
0.703609 0.013474 0.000000
0.795407 0.071595 0.000000
0.877928 0.145266 0.000000
0.964355 0.216800 0.000000
1.000000 0.291020 0.000000
1.000000 0.377691 0.013458
1.000000 0.466072 0.204471
1.000000 0.555657 0.347417
1.000000 0.632319 0.455085
1.000000 0.689937 0.539055
1.000000 0.727535 0.596674
1.000000 0.802243 0.691890
1.000000 0.866697 0.775387
1.000000 0.924804 0.844724
0.000000 0.004959 0.019440
0.000000 0.005264 0.020645
0.000000 0.005631 0.022080
0.000000 0.006104 0.023972
0.000000 0.007050 0.025849
0.000000 0.008362 0.027558
0.007691 0.009400 0.028367
0.026032 0.011246 0.029969
0.047150 0.011460 0.033692
0.082094 0.004150 0.039338
0.114443 0.000000 0.034974
0.152224 0.000000 0.019303
0.203128 0.000000 0.000000
0.268070 0.000000 0.000000
0.352544 0.000000 0.000000
0.443854 0.000000 0.000000
0.512200 0.000000 0.000000
0.600092 0.000717 0.000000
0.708003 0.027863 0.000000
0.797848 0.086976 0.000000
0.880858 0.156619 0.000000
0.967285 0.222660 0.000000
1.000000 0.297856 0.000000
1.000000 0.381598 0.023758
1.000000 0.470466 0.211551
1.000000 0.558587 0.348882
1.000000 0.632807 0.454841
1.000000 0.691890 0.540520
1.000000 0.729000 0.598138
1.000000 0.802243 0.691890
1.000000 0.867185 0.776852
1.000000 0.924804 0.844724
0.000000 0.007904 0.024155
0.000000 0.008637 0.025360
0.000000 0.009628 0.027008
0.000000 0.010697 0.029084
0.000000 0.012818 0.031891
0.000000 0.015015 0.033082
0.008881 0.017212 0.034180
0.029679 0.019272 0.035157
0.053101 0.022416 0.038819
0.087221 0.022461 0.043336
0.119509 0.018860 0.038758
0.157595 0.015854 0.024826
0.209720 0.014694 0.000000
0.275395 0.000000 0.000000
0.360357 0.000000 0.000000
0.448249 0.000000 0.000000
0.516594 0.011460 0.000000
0.604486 0.034546 0.000000
0.709957 0.063844 0.000000
0.799802 0.113405 0.000000
0.884276 0.172000 0.000000
0.968750 0.234379 0.000000
1.000000 0.304448 0.000000
1.000000 0.387213 0.029938
1.000000 0.475593 0.217777
1.000000 0.561028 0.351324
1.000000 0.636225 0.458259
1.000000 0.692866 0.542962
1.000000 0.729976 0.599603
1.000000 0.803220 0.692866
1.000000 0.867185 0.776852
1.000000 0.925780 0.845212
0.000000 0.014862 0.030167
0.000000 0.015610 0.031800
0.000000 0.016999 0.033539
0.000000 0.019013 0.035676
0.000000 0.020951 0.037842
0.000656 0.024186 0.040986
0.014176 0.027649 0.040253
0.035096 0.030884 0.041657
0.058900 0.035157 0.045258
0.090394 0.040406 0.048707
0.123476 0.041871 0.044221
0.163210 0.043702 0.031922
0.216312 0.042908 0.000000
0.283207 0.040925 0.000000
0.368170 0.026093 0.000000
0.452399 0.036072 0.000000
0.520500 0.048615 0.000000
0.609857 0.070924 0.000000
0.715328 0.100710 0.000000
0.803220 0.140017 0.000000
0.886229 0.189212 0.000000
0.972656 0.244999 0.000000
1.000000 0.314702 0.000000
1.000000 0.395026 0.042298
1.000000 0.483162 0.223880
1.000000 0.565911 0.357427
1.000000 0.640620 0.463630
1.000000 0.695796 0.545403
1.000000 0.731441 0.601068
1.000000 0.803708 0.693355
1.000000 0.868162 0.776852
1.000000 0.925780 0.845212
0.000000 0.025452 0.037934
0.000000 0.026780 0.039399
0.000000 0.028458 0.041077
0.000000 0.030503 0.042786
0.000000 0.033234 0.045319
0.000000 0.035645 0.049042
0.010498 0.041016 0.048127
0.042451 0.045258 0.048005
0.068849 0.052369 0.052247
0.095521 0.056428 0.052827
0.127199 0.060578 0.049836
0.166384 0.064576 0.041321
0.221561 0.069764 0.007996
0.288579 0.074769 0.000000
0.376715 0.081361 0.000000
0.456306 0.086427 0.000000
0.525872 0.094362 0.000000
0.615717 0.107118 0.000000
0.723140 0.130983 0.000000
0.807126 0.166262 0.000000
0.890623 0.207767 0.000000
0.974121 0.262211 0.000000
1.000000 0.326421 0.000000
1.000000 0.406500 0.056947
1.000000 0.489265 0.233158
1.000000 0.572259 0.363775
1.000000 0.641596 0.463386
1.000000 0.697749 0.546868
1.000000 0.731441 0.600580
1.000000 0.804685 0.695308
1.000000 0.869139 0.777829
1.000000 0.926757 0.846189
0.000000 0.040894 0.046448
0.000000 0.042115 0.047669
0.000000 0.043854 0.049012
0.000000 0.046265 0.050752
0.000000 0.048585 0.053162
0.000580 0.051637 0.057008
0.018723 0.056001 0.058015
0.045869 0.062379 0.055421
0.074098 0.068544 0.056031
0.099062 0.072694 0.055360
0.130861 0.078431 0.053956
0.174807 0.086183 0.047578
0.227787 0.094545 0.025086
0.295415 0.105348 0.002792
0.381353 0.116274 0.000000
0.459724 0.124819 0.000000
0.531731 0.130983 0.000000
0.623529 0.145632 0.000000
0.727535 0.166140 0.000000
0.812497 0.193362 0.000000
0.895018 0.230350 0.000000
0.979492 0.280522 0.000000
1.000000 0.341802 0.000000
1.000000 0.417243 0.081239
1.000000 0.498299 0.243290
1.000000 0.579095 0.368902
1.000000 0.647944 0.469490
1.000000 0.700679 0.547845
1.000000 0.733394 0.602045
1.000000 0.805661 0.695308
1.000000 0.869627 0.779293
1.000000 0.927245 0.846189
0.000000 0.060548 0.054963
0.000000 0.061830 0.055940
0.000000 0.063539 0.057130
0.000000 0.065309 0.058808
0.000000 0.067811 0.061219
0.000000 0.070253 0.064454
0.019806 0.073915 0.068238
0.043122 0.079835 0.063050
0.076539 0.087465 0.061006
0.107607 0.094423 0.060975
0.140139 0.099306 0.059602
0.180789 0.108400 0.055390
0.235966 0.121645 0.040864
0.302739 0.135256 0.008087
0.387945 0.152224 0.000000
0.460945 0.159792 0.000000
0.539544 0.169558 0.000000
0.631342 0.181033 0.000000
0.736324 0.202884 0.000000
0.817868 0.224857 0.000000
0.901854 0.257572 0.000000
0.983398 0.302251 0.000000
1.000000 0.361578 0.000000
1.000000 0.435065 0.109133
1.000000 0.510246 0.260746
1.000000 0.587396 0.376959
1.000000 0.653803 0.476081
1.000000 0.704585 0.553216
1.000000 0.736812 0.605463
1.000000 0.809079 0.698726
1.000000 0.872557 0.780758
1.000000 0.928710 0.847166
0.000000 0.082948 0.061952
0.000000 0.083925 0.063050
0.000000 0.085328 0.064210
0.000000 0.086976 0.066041
0.000000 0.088808 0.068177
0.001465 0.091554 0.071656
0.024781 0.094179 0.076234
0.050507 0.101381 0.072023
0.077516 0.109255 0.068299
0.114931 0.120974 0.067567
0.154421 0.129885 0.067201
0.194339 0.137331 0.065370
0.245121 0.149783 0.058381
0.312261 0.168093 0.024186
0.396490 0.185672 0.000702
0.466804 0.196536 0.000000
0.544915 0.206180 0.000000
0.641596 0.221927 0.000000
0.745602 0.239384 0.000000
0.827146 0.260990 0.000000
0.908690 0.289311 0.000000
0.989258 0.331548 0.000000
1.000000 0.384283 0.000000
1.000000 0.454108 0.141970
1.000000 0.523919 0.276127
1.000000 0.601068 0.389899
1.000000 0.661616 0.482918
1.000000 0.709957 0.557122
1.000000 0.740230 0.608392
1.000000 0.810056 0.699702
1.000000 0.873533 0.780758
1.000000 0.929198 0.847654
0.000000 0.108949 0.069093
0.000000 0.110109 0.070314
0.000000 0.111391 0.071717
0.000000 0.113161 0.073732
0.000000 0.115724 0.076234
0.008423 0.118105 0.079774
0.038178 0.121950 0.084962
0.059571 0.127932 0.084352
0.085817 0.139162 0.078614
0.119692 0.151247 0.076417
0.168338 0.166751 0.075685
0.213993 0.176761 0.074769
0.265629 0.187991 0.073671
0.326665 0.203861 0.061341
0.402350 0.221439 0.016739
0.475349 0.232914 0.000000
0.559075 0.248905 0.000000
0.652827 0.264897 0.000000
0.756344 0.287114 0.000000
0.834470 0.300298 0.000000
0.918944 0.327398 0.000000
0.994141 0.362799 0.000000
1.000000 0.415778 0.036011
1.000000 0.475349 0.176638
1.000000 0.545403 0.296635
1.000000 0.613275 0.401862
1.000000 0.670405 0.490242
1.000000 0.716793 0.563470
1.000000 0.744625 0.611811
1.000000 0.812985 0.702632
1.000000 0.874998 0.783688
1.000000 0.930663 0.849607
0.000000 0.143923 0.079896
0.000000 0.145022 0.080873
0.000000 0.146609 0.082887
0.000000 0.148440 0.085206
0.000000 0.151125 0.088075
0.000000 0.153811 0.092470
0.028687 0.157839 0.097475
0.064271 0.164920 0.100282
0.093751 0.175174 0.094057
0.132448 0.190433 0.088624
0.175051 0.206302 0.087343
0.236698 0.225467 0.086000
0.291752 0.236942 0.085817
0.351568 0.250736 0.083742
0.416022 0.262211 0.071656
0.492195 0.279545 0.034974
0.577142 0.294926 0.001541
0.673335 0.313481 0.000000
0.765621 0.330816 0.000000
0.846189 0.349859 0.000000
0.929198 0.369146 0.000000
1.000000 0.404059 0.000000
1.000000 0.449226 0.104494
1.000000 0.507317 0.220462
1.000000 0.567864 0.320562
1.000000 0.631342 0.419928
1.000000 0.681147 0.502434
1.000000 0.725582 0.571283
1.000000 0.749020 0.615717
1.000000 0.817380 0.707027
1.000000 0.878904 0.786130
1.000000 0.932616 0.850584
0.000000 0.189212 0.095216
0.000000 0.191165 0.096559
0.000000 0.192508 0.098512
0.002213 0.194095 0.101015
0.017075 0.196414 0.104311
0.035157 0.199832 0.108339
0.062013 0.204227 0.114443
0.095399 0.209720 0.120912
0.117128 0.222904 0.112673
0.146975 0.236942 0.106935
0.193973 0.255863 0.101930
0.248905 0.276127 0.100282
0.320317 0.296880 0.097230
0.380377 0.308110 0.097841
0.446784 0.319585 0.098146
0.519524 0.333013 0.086549
0.607416 0.351324 0.041566
0.695796 0.367681 0.014481
0.785153 0.385260 0.018662
0.863279 0.397711 0.021210
0.942382 0.423346 0.036927
1.000000 0.449226 0.079652
1.000000 0.493172 0.178470
1.000000 0.539055 0.258061
1.000000 0.595697 0.349126
1.000000 0.647944 0.436286
1.000000 0.698238 0.516106
1.000000 0.733394 0.578119
1.000000 0.754879 0.621088
1.000000 0.822751 0.711421
1.000000 0.881834 0.788571
1.000000 0.934569 0.853025
0.000000 0.247196 0.116945
0.000000 0.248417 0.118105
0.000000 0.250004 0.119997
0.000092 0.251713 0.123049
0.019486 0.254887 0.126101
0.047852 0.258061 0.130861
0.089052 0.261967 0.137087
0.129030 0.268559 0.145754
0.143679 0.281254 0.138064
0.172488 0.298100 0.128542
0.211185 0.313970 0.122316
0.268315 0.335210 0.116335
0.332280 0.356207 0.114260
0.413825 0.378912 0.110353
0.484627 0.390143 0.114015
0.560540 0.403571 0.115846
0.637690 0.416022 0.111086
0.728023 0.433356 0.091859
0.806149 0.443854 0.067750
0.887205 0.460945 0.078676
0.958495 0.479011 0.132204
1.000000 0.506828 0.187381
1.000000 0.538567 0.239994
1.000000 0.580560 0.302739
1.000000 0.627436 0.382330
1.000000 0.674800 0.464607
1.000000 0.713375 0.531731
1.000000 0.745113 0.589837
1.000000 0.765133 0.630365
1.000000 0.829099 0.717281
1.000000 0.886229 0.792477
1.000000 0.938476 0.854978
0.001617 0.319585 0.143191
0.004746 0.320562 0.144656
0.008209 0.322026 0.146853
0.010758 0.324468 0.149905
0.025025 0.327153 0.153811
0.058259 0.330327 0.158694
0.105837 0.333989 0.164920
0.160281 0.339849 0.173342
0.179080 0.353277 0.164309
0.205814 0.366949 0.155398
0.242802 0.384771 0.146242
0.287846 0.403082 0.138796
0.354742 0.427008 0.133181
0.431403 0.448981 0.130251
0.526360 0.473640 0.128298
0.602533 0.483162 0.135744
0.681636 0.496345 0.147097
0.761227 0.502434 0.148196
0.837400 0.516594 0.160891
0.909667 0.526360 0.175051
0.979980 0.542962 0.204227
1.000000 0.564446 0.245609
1.000000 0.592279 0.297856
1.000000 0.624994 0.353033
1.000000 0.665034 0.421881
1.000000 0.700679 0.489021
1.000000 0.734371 0.552728
1.000000 0.758297 0.603510
1.000000 0.776364 0.642084
1.000000 0.836423 0.724605
1.000000 0.892088 0.798337
1.000000 0.941894 0.857420
0.065003 0.404547 0.178103
0.075563 0.405768 0.179934
0.086061 0.407477 0.183108
0.099245 0.409674 0.185550
0.120241 0.412116 0.188724
0.148074 0.415290 0.194705
0.173709 0.418952 0.200809
0.206424 0.425055 0.207889
0.221683 0.435798 0.199222
0.243046 0.450935 0.188235
0.277104 0.466316 0.178958
0.325689 0.484871 0.169924
0.380865 0.503899 0.162844
0.459236 0.528801 0.155886
0.541985 0.550774 0.156130
0.644526 0.574701 0.157473
0.719722 0.582025 0.172976
0.797360 0.588373 0.192874
0.870115 0.593256 0.209598
0.938964 0.602533 0.234745
0.997559 0.608881 0.259525
1.000000 0.626947 0.301762
1.000000 0.647944 0.347906
1.000000 0.677241 0.407721
1.000000 0.703609 0.465095
1.000000 0.734371 0.523919
1.000000 0.757321 0.576654
1.000000 0.774899 0.619623
1.000000 0.789059 0.654292
1.000000 0.846189 0.733883
1.000000 0.898924 0.803220
1.000000 0.946777 0.861326
0.125124 0.500984 0.223026
0.130617 0.503410 0.224002
0.157107 0.503410 0.226322
0.168826 0.505852 0.229252
0.206058 0.507317 0.233768
0.224369 0.509758 0.238529
0.245243 0.513664 0.245487
0.263676 0.519524 0.245853
0.277836 0.530755 0.237552
0.298100 0.540520 0.228153
0.325200 0.556634 0.217044
0.364508 0.570794 0.208988
0.422858 0.590814 0.200565
0.481941 0.609369 0.194705
0.565911 0.633295 0.190311
0.655756 0.654292 0.193118
0.757321 0.672847 0.203616
0.831052 0.675288 0.226810
0.899901 0.679194 0.257328
0.961425 0.677729 0.282719
0.999512 0.685542 0.318853
1.000000 0.692378 0.356695
1.000000 0.709957 0.406256
1.000000 0.727047 0.455085
1.000000 0.748043 0.511223
1.000000 0.767575 0.561517
1.000000 0.784665 0.607416
1.000000 0.793454 0.638666
1.000000 0.805173 0.670405
1.000000 0.856931 0.743160
1.000000 0.907225 0.811032
1.000000 0.952636 0.865721
0.248295 0.602533 0.278080
0.253910 0.603998 0.280278
0.259281 0.605951 0.281254
0.275395 0.607416 0.284428
0.292241 0.607416 0.288579
0.313970 0.608881 0.293706
0.324712 0.614740 0.297368
0.335943 0.620600 0.291508
0.347173 0.627924 0.282719
0.364263 0.638178 0.274907
0.387457 0.649409 0.266850
0.424323 0.663569 0.257572
0.464118 0.678218 0.250736
0.529778 0.695308 0.243046
0.592767 0.711421 0.243290
0.678218 0.731929 0.246830
0.768063 0.748531 0.254887
0.861326 0.760739 0.272465
0.920897 0.759762 0.303960
0.977050 0.757809 0.338384
1.000000 0.757321 0.375494
1.000000 0.763668 0.418952
1.000000 0.768063 0.460700
1.000000 0.779293 0.509758
1.000000 0.789548 0.553704
1.000000 0.804685 0.602045
1.000000 0.812009 0.636225
1.000000 0.813474 0.659663
1.000000 0.822751 0.688960
1.000000 0.871580 0.758297
1.000000 0.916991 0.818845
1.000000 0.959960 0.871092
0.369390 0.702144 0.343755
0.373053 0.702144 0.345953
0.378668 0.703120 0.347662
0.387701 0.704097 0.350103
0.397955 0.706538 0.353033
0.404547 0.708492 0.353521
0.410163 0.711910 0.347906
0.418219 0.717281 0.344488
0.433356 0.725093 0.338140
0.443366 0.731441 0.331304
0.468269 0.740719 0.325200
0.492927 0.749508 0.319341
0.529778 0.761227 0.313970
0.571283 0.773434 0.309575
0.638666 0.787594 0.308354
0.698238 0.800778 0.311528
0.783200 0.816403 0.320806
0.862791 0.826169 0.334478
0.938964 0.834470 0.360845
0.987305 0.830076 0.396002
1.000000 0.827146 0.438972
1.000000 0.826658 0.479011
1.000000 0.825681 0.519524
1.000000 0.827146 0.558099
1.000000 0.833494 0.601068
1.000000 0.836912 0.635248
1.000000 0.838865 0.666010
1.000000 0.831540 0.681147
1.000000 0.845212 0.713375
1.000000 0.887205 0.773434
1.000000 0.930175 0.829587
1.000000 0.968750 0.877440
0.492195 0.791012 0.424323
0.496101 0.791012 0.422858
0.495857 0.792966 0.422126
0.496101 0.794430 0.419928
0.498054 0.795407 0.418219
0.508293 0.797360 0.416022
0.507805 0.800778 0.414557
0.514641 0.802731 0.409430
0.524895 0.807126 0.407721
0.541985 0.811521 0.404547
0.553704 0.816892 0.399176
0.577142 0.822751 0.392584
0.602533 0.831052 0.391119
0.639155 0.841794 0.386969
0.682124 0.848630 0.388190
0.742184 0.859861 0.391119
0.794430 0.869627 0.398932
0.865232 0.881834 0.414069
0.937011 0.894041 0.436042
0.996094 0.895506 0.467536
1.000000 0.889158 0.503899
1.000000 0.883787 0.541009
1.000000 0.877440 0.574212
1.000000 0.875486 0.609857
1.000000 0.870115 0.640131
1.000000 0.869139 0.671382
1.000000 0.861326 0.690913
1.000000 0.852049 0.702632
1.000000 0.868162 0.737789
1.000000 0.906737 0.792477
1.000000 0.942870 0.840818
1.000000 0.978515 0.885740
0.600580 0.862303 0.499031
0.598138 0.863767 0.496834
0.599603 0.864256 0.495125
0.602533 0.864256 0.495369
0.603998 0.865232 0.493660
0.609369 0.866697 0.493172
0.610834 0.868650 0.492195
0.616693 0.870115 0.490486
0.623529 0.873533 0.486336
0.628412 0.875975 0.486824
0.645502 0.879881 0.481453
0.657710 0.883787 0.479988
0.681147 0.888670 0.477302
0.703609 0.895018 0.477546
0.739254 0.902342 0.478279
0.773434 0.910155 0.481453
0.825681 0.920897 0.489509
0.874510 0.929198 0.501472
0.935546 0.938476 0.523430
0.986328 0.943847 0.542473
1.000000 0.939452 0.570306
1.000000 0.930175 0.597650
1.000000 0.922362 0.630365
1.000000 0.913573 0.656245
1.000000 0.905272 0.682612
1.000000 0.894041 0.701656
1.000000 0.882811 0.715328
1.000000 0.870604 0.720699
1.000000 0.894530 0.764157
1.000000 0.927733 0.812985
1.000000 0.960449 0.854978
1.000000 0.989746 0.892576
0.696284 0.918944 0.580560
0.696284 0.918456 0.581537
0.695308 0.919432 0.580072
0.697261 0.919432 0.580072
0.701167 0.920897 0.578607
0.702144 0.921386 0.578119
0.703609 0.922362 0.575677
0.708003 0.923339 0.575677
0.713375 0.925292 0.576654
0.719722 0.927245 0.572259
0.725582 0.929198 0.571771
0.735836 0.933104 0.570306
0.750484 0.936522 0.570306
0.768551 0.940429 0.568841
0.787106 0.945312 0.571283
0.816892 0.951171 0.574701
0.850095 0.957031 0.579583
0.894041 0.963378 0.589349
0.932616 0.968750 0.600092
0.982422 0.974121 0.618158
1.000000 0.975097 0.635248
1.000000 0.968261 0.656245
1.000000 0.956542 0.678706
1.000000 0.944823 0.699702
1.000000 0.932128 0.716793
1.000000 0.917479 0.728511
1.000000 0.904295 0.735836
1.000000 0.895018 0.745113
1.000000 0.921874 0.789548
1.000000 0.951171 0.833005
1.000000 0.977050 0.870115
1.000000 0.999023 0.903319
0.775876 0.958495 0.664546
0.775876 0.958495 0.664546
0.778317 0.958984 0.663569
0.779293 0.959472 0.662104
0.779293 0.959472 0.662104
0.780270 0.959960 0.662104
0.783200 0.960449 0.661128
0.784176 0.961913 0.659175
0.787594 0.962402 0.660151
0.789548 0.964355 0.659663
0.799313 0.965331 0.658198
0.804685 0.967773 0.657710
0.813962 0.969726 0.656733
0.826169 0.972168 0.656733
0.840818 0.974609 0.658198
0.858396 0.978027 0.659663
0.883787 0.981933 0.662593
0.908690 0.985351 0.669429
0.940429 0.989258 0.677241
0.973144 0.992187 0.684565
0.995117 0.994629 0.698726
1.000000 0.992187 0.710445
1.000000 0.983886 0.723629
1.000000 0.970214 0.735836
1.000000 0.955566 0.746578
1.000000 0.939452 0.750973
1.000000 0.925780 0.756832
1.000000 0.928710 0.776364
1.000000 0.953124 0.816892
1.000000 0.974121 0.850584
1.000000 0.995117 0.883787
1.000000 1.000000 0.916991
0.845212 0.984375 0.739254
0.845212 0.984375 0.738277
0.845212 0.984375 0.738277
0.844724 0.985351 0.736812
0.846189 0.985351 0.736812
0.847166 0.985351 0.736812
0.848630 0.985840 0.735836
0.848142 0.986328 0.736324
0.852049 0.986816 0.735836
0.854002 0.987793 0.734371
0.858396 0.988281 0.734371
0.861814 0.989258 0.733394
0.867185 0.990723 0.732906
0.874022 0.992187 0.732418
0.881834 0.993652 0.733394
0.895018 0.996094 0.733883
0.907225 0.998047 0.733883
0.923827 0.999023 0.735348
0.942382 1.000000 0.738766
0.964843 1.000000 0.742184
0.989258 1.000000 0.748043
1.000000 1.000000 0.756344
1.000000 0.999023 0.760739
1.000000 0.989746 0.764157
1.000000 0.976562 0.768551
1.000000 0.960937 0.772946
1.000000 0.947753 0.775387
1.000000 0.965331 0.808103
1.000000 0.980957 0.837888
1.000000 0.996582 0.868650
1.000000 1.000000 0.898924
1.000000 1.000000 0.931151
0.885252 0.999023 0.791989
0.885252 0.999023 0.791989
0.885252 0.999512 0.791012
0.885252 0.999023 0.791989
0.885252 0.999512 0.791012
0.885740 0.999512 0.791501
0.886229 0.999512 0.791501
0.886717 0.999512 0.789548
0.889158 0.999512 0.789548
0.890135 0.999512 0.790036
0.893065 1.000000 0.789059
0.894041 1.000000 0.787594
0.896971 1.000000 0.786618
0.900877 1.000000 0.786618
0.904295 1.000000 0.784665
0.909178 1.000000 0.783688
0.917479 1.000000 0.783200
0.927245 1.000000 0.782712
0.940429 1.000000 0.782223
0.954589 1.000000 0.781735
0.975097 1.000000 0.782712
0.993164 1.000000 0.783688
1.000000 1.000000 0.787106
1.000000 1.000000 0.788571
1.000000 0.992676 0.788571
1.000000 0.980468 0.788571
1.000000 0.988281 0.811032
1.000000 0.995605 0.834958
1.000000 1.000000 0.862791
1.000000 1.000000 0.888670
1.000000 1.000000 0.917967
1.000000 1.000000 0.945312
0.901366 1.000000 0.825681
0.900877 1.000000 0.825193
0.900877 1.000000 0.826169
0.900877 1.000000 0.826169
0.900877 1.000000 0.826169
0.900877 1.000000 0.825681
0.901854 1.000000 0.825681
0.901854 1.000000 0.825681
0.903807 1.000000 0.824216
0.904295 1.000000 0.822263
0.904295 1.000000 0.824216
0.907225 1.000000 0.821286
0.906737 1.000000 0.821286
0.910155 1.000000 0.819821
0.913085 1.000000 0.818845
0.917479 1.000000 0.816403
0.919432 1.000000 0.813474
0.927733 1.000000 0.811521
0.935058 1.000000 0.808591
0.949218 1.000000 0.807126
0.959472 1.000000 0.806638
0.978515 1.000000 0.804685
0.994629 1.000000 0.804196
1.000000 1.000000 0.806638
1.000000 1.000000 0.805661
1.000000 1.000000 0.822751
1.000000 1.000000 0.843259
1.000000 1.000000 0.865232
1.000000 1.000000 0.887694
1.000000 1.000000 0.912108
1.000000 1.000000 0.936522
1.000000 1.000000 0.959960
0.909667 1.000000 0.840330
0.909667 1.000000 0.840818
0.909667 1.000000 0.840330
0.909667 1.000000 0.840818
0.909667 1.000000 0.841306
0.909667 1.000000 0.840818
0.909667 1.000000 0.839841
0.909667 1.000000 0.839353
0.909667 1.000000 0.838865
0.911620 1.000000 0.838376
0.911620 1.000000 0.837888
0.911620 1.000000 0.836423
0.914061 1.000000 0.835935
0.914061 1.000000 0.834470
0.916503 1.000000 0.833982
0.918456 1.000000 0.831540
0.922850 1.000000 0.829587
0.929686 1.000000 0.829099
0.942382 1.000000 0.830564
0.957519 1.000000 0.831540
0.977539 1.000000 0.833494
0.994629 1.000000 0.835935
1.000000 1.000000 0.841306
1.000000 1.000000 0.840330
1.000000 1.000000 0.851560
1.000000 1.000000 0.861814
1.000000 1.000000 0.879393
1.000000 1.000000 0.895018
1.000000 1.000000 0.915526
1.000000 1.000000 0.935058
1.000000 1.000000 0.955566
1.000000 1.000000 0.974121
0.970214 1.000000 0.880369
0.970214 1.000000 0.880369
0.970214 1.000000 0.880858
0.971679 1.000000 0.879881
0.971679 1.000000 0.879881
0.971679 1.000000 0.881346
0.973144 1.000000 0.880369
0.973632 1.000000 0.880369
0.974609 1.000000 0.879881
0.974609 1.000000 0.879881
0.976074 1.000000 0.879393
0.977539 1.000000 0.880369
0.979004 1.000000 0.879881
0.980957 1.000000 0.879881
0.984863 1.000000 0.879881
0.989258 1.000000 0.879881
0.994141 1.000000 0.879881
0.997070 1.000000 0.879881
0.998047 1.000000 0.879393
1.000000 1.000000 0.880369
1.000000 1.000000 0.879881
1.000000 1.000000 0.879393
1.000000 1.000000 0.881346
1.000000 1.000000 0.887205
1.000000 1.000000 0.893065
1.000000 1.000000 0.901854
1.000000 1.000000 0.912108
1.000000 1.000000 0.926757
1.000000 1.000000 0.941405
1.000000 1.000000 0.958495
1.000000 1.000000 0.973144
1.000000 0.999023 0.986816
1.000000 1.000000 0.919432
1.000000 1.000000 0.919432
1.000000 1.000000 0.919432
1.000000 1.000000 0.919432
1.000000 1.000000 0.918944
1.000000 1.000000 0.918944
1.000000 1.000000 0.920409
1.000000 1.000000 0.919921
1.000000 1.000000 0.919921
1.000000 1.000000 0.919921
1.000000 1.000000 0.919921
1.000000 1.000000 0.919432
1.000000 1.000000 0.919921
1.000000 1.000000 0.919432
1.000000 1.000000 0.918944
1.000000 1.000000 0.920409
1.000000 1.000000 0.920409
1.000000 1.000000 0.919921
1.000000 1.000000 0.920409
1.000000 1.000000 0.921386
1.000000 1.000000 0.922362
1.000000 1.000000 0.924804
1.000000 1.000000 0.926268
