lut/DFC/FOREST_LUT_forest_look_v1_srgb.2013.07.27.3dl
# Generated by Foundry::LUT
0 33 66 99 132 165 198 231 264 297 330 363 396 429 462 495 528 561 594 627 660 693 726 759 792 825 858 891 924 957 990 1023 
0 1 3
0 1 3
0 1 5
0 2 6
0 2 7
0 2 8
0 2 8
0 2 7
0 1 4
0 1 1
0 0 0
0 0 0
0 0 0
0 0 0
0 0 0
0 0 0
0 0 0
0 0 0
0 0 0
0 0 0
0 0 0
0 0 0
0 0 0
0 0 0
0 0 0
0 0 0
0 0 0
0 0 0
0 0 0
0 0 0
0 0 0
0 0 0
0 2 7
0 2 7
0 2 9
0 3 10
0 3 12
0 4 14
0 4 15
0 4 17
0 4 15
0 3 10
0 2 6
0 1 4
0 1 1
0 0 0
0 0 0
0 0 0
0 0 0
0 0 0
0 0 0
0 0 0
0 0 0
0 0 0
0 0 0
0 0 0
0 0 0
0 0 0
0 0 0
0 0 0
0 0 0
0 0 0
0 0 0
0 0 0
0 4 14
0 4 16
0 4 15
0 4 16
0 4 18
0 5 20
0 5 22
0 6 23
0 6 24
0 6 23
0 4 18
0 4 14
0 3 11
0 2 7
0 1 4
0 1 1
0 0 0
0 0 0
0 0 0
0 0 0
0 0 0
0 0 0
0 0 0
0 0 0
0 0 0
0 0 0
0 0 0
0 0 0
0 0 0
0 0 0
0 0 0
0 0 0
0 6 18
0 7 23
0 7 26
0 6 26
0 6 25
0 7 27
0 7 29
0 7 31
0 8 33
0 8 34
0 8 32
0 7 28
0 6 23
0 5 20
0 4 16
0 3 12
0 2 8
0 1 4
0 1 1
0 0 0
0 0 0
0 0 0
0 0 0
0 0 0
0 0 0
0 0 0
0 0 0
0 0 0
0 0 0
0 0 0
0 0 0
0 0 0
0 11 23
0 12 26
0 13 32
0 13 37
0 12 38
0 11 35
0 11 38
0 11 40
0 11 43
0 11 44
0 11 45
0 10 42
0 9 38
0 8 34
0 7 31
0 6 27
0 6 23
0 5 19
0 4 15
0 3 10
0 2 5
0 1 2
0 0 0
0 0 0
0 0 0
0 0 0
0 0 0
0 0 0
0 0 0
0 0 0
0 0 0
0 0 0
0 19 29
0 20 32
0 22 37
0 23 43
0 22 50
0 21 53
0 19 50
0 18 51
0 18 54
0 17 56
0 16 57
0 15 58
0 13 54
0 12 50
0 11 47
0 10 43
0 9 39
0 8 35
0 7 31
0 6 27
0 5 22
0 4 17
0 3 12
0 2 8
0 1 3
0 0 0
0 0 0
0 0 0
0 0 0
0 0 0
0 0 0
0 0 0
0 32 36
0 32 40
0 33 44
0 35 49
0 36 57
0 34 65
0 32 69
0 29 67
0 28 66
0 27 69
0 26 72
0 23 73
0 21 74
0 17 69
0 14 63
0 14 60
0 13 57
0 12 53
0 11 49
0 10 45
0 9 40
0 8 35
0 7 28
0 6 23
0 5 19
0 3 13
0 2 6
0 1 2
0 0 0
0 0 0
0 0 0
0 0 0
0 49 44
0 49 48
0 49 52
0 49 57
0 52 63
0 52 72
0 50 83
0 47 89
0 43 88
0 41 84
0 39 88
0 37 92
0 34 93
0 30 94
0 23 86
0 19 79
0 17 75
0 17 73
0 16 69
0 15 65
0 14 60
0 13 56
0 11 49
0 10 42
0 9 36
0 7 31
0 6 24
0 4 17
0 3 11
0 2 6
0 1 2
0 0 0
0 69 50
0 69 55
0 69 60
0 69 66
0 69 73
0 73 80
0 74 92
0 72 107
0 68 118
0 63 118
0 59 109
0 56 114
0 54 120
0 49 121
0 44 123
0 33 112
0 25 100
0 22 95
0 21 91
0 21 89
0 19 84
0 18 78
0 17 73
0 15 65
0 13 58
0 12 51
0 11 45
0 9 37
0 7 29
0 6 23
0 4 17
0 3 11
0 92 58
0 93 62
0 94 68
0 94 75
0 95 84
0 95 93
0 101 103
0 104 119
0 102 140
0 97 155
0 90 157
0 84 143
0 80 150
0 77 157
0 69 159
0 63 160
0 46 144
0 35 129
0 30 122
0 27 117
0 26 112
0 25 109
0 23 102
0 22 95
0 20 85
0 18 76
0 16 69
0 14 62
0 12 53
0 10 44
0 9 36
0 7 30
0 125 69
0 127 74
0 128 79
0 128 87
0 129 97
0 130 108
0 131 121
0 139 134
0 144 156
0 144 184
0 137 204
0 129 208
0 119 193
0 114 197
0 110 206
0 99 208
0 89 210
0 66 190
0 49 168
0 41 158
0 37 151
0 34 145
0 32 140
0 31 134
0 28 125
0 26 113
0 23 100
0 21 91
0 19 82
0 16 72
0 14 61
0 12 53
0 169 85
0 171 90
0 172 96
0 174 104
0 175 114
0 176 127
0 178 142
0 179 158
0 189 175
0 197 203
0 200 242
0 191 269
0 178 275
0 167 259
0 159 258
0 153 270
0 139 273
0 126 275
0 93 248
0 69 220
0 57 207
0 50 197
0 45 188
0 42 180
0 40 173
0 38 165
0 34 149
0 31 134
0 28 121
0 25 109
0 22 95
0 19 82
0 226 108
0 228 113
0 229 119
0 232 128
0 234 138
0 236 151
0 238 167
0 240 187
0 242 208
0 254 230
0 264 265
0 268 314
0 256 348
0 242 358
0 228 342
7 217 335
0 208 349
0 190 352
0 173 354
0 130 322
0 96 286
0 80 270
0 69 257
0 61 245
0 56 233
0 52 223
0 49 214
0 45 198
0 40 178
0 37 162
0 33 147
0 29 128
0 299 138
0 301 145
0 303 150
0 306 160
0 307 170
0 311 182
0 314 200
0 316 220
0 318 244
0 321 272
0 335 299
0 347 340
0 352 399
0 338 441
0 318 455
0 302 437
16 286 426
0 276 442
0 254 447
0 231 448
0 177 408
0 133 368
0 110 348
0 94 332
0 83 316
0 74 302
0 68 288
0 64 275
0 59 261
0 54 236
0 49 216
0 45 197
46 387 177
39 389 184
29 391 190
23 394 199
21 397 210
3 400 223
1 404 238
0 407 259
0 410 286
0 413 317
0 416 350
0 431 381
0 446 430
0 448 494
0 429 540
0 405 555
0 386 538
39 368 525
26 355 542
0 327 546
0 301 549
0 234 507
0 179 464
0 150 441
0 127 422
0 111 402
0 99 386
0 89 368
0 82 351
0 76 331
0 71 314
0 65 287
94 488 228
84 490 234
77 493 240
63 495 249
50 497 260
40 500 273
19 504 289
6 507 308
0 513 332
0 515 362
0 518 399
0 521 438
0 537 473
0 551 524
0 552 592
0 526 642
0 500 660
25 479 645
155 460 628
91 443 646
52 411 650
8 380 653
0 302 611
0 235 565
0 197 540
0 169 521
0 147 501
0 129 481
0 116 462
0 106 442
0 97 417
0 90 395
206 596 290
201 597 295
181 602 302
169 603 310
157 604 320
142 606 333
105 611 346
49 615 365
24 618 387
17 621 414
0 623 447
0 629 488
3 631 529
0 645 570
0 660 623
0 656 688
0 628 737
0 599 755
118 578 744
281 558 726
252 539 742
193 505 747
119 470 751
42 381 713
0 302 672
0 256 647
0 220 625
0 191 605
0 168 585
0 149 563
0 136 542
0 123 514
322 703 360
319 705 367
322 705 376
315 706 382
307 708 390
298 711 401
287 715 415
275 716 431
251 721 451
230 723 473
174 727 503
159 729 539
137 732 581
132 736 625
5 746 667
0 761 717
0 751 776
0 722 818
55 693 832
326 674 824
417 655 810
395 637 823
353 601 828
303 565 831
177 468 804
30 380 768
0 324 746
0 281 727
0 245 709
0 216 689
0 191 669
0 171 646
454 798 443
460 798 450
455 800 457
455 800 465
451 801 474
445 802 484
445 805 495
436 807 510
429 808 525
416 811 547
401 814 571
387 816 600
369 818 632
358 819 674
362 821 714
296 827 753
43 843 798
0 831 844
89 803 879
325 773 891
486 760 885
553 746 873
535 729 885
498 696 889
459 660 893
360 564 873
239 467 847
93 406 832
0 355 818
0 312 801
0 275 787
0 244 767
582 873 539
581 873 544
584 873 550
581 873 556
584 873 565
584 874 575
581 874 584
575 876 596
572 878 609
568 878 625
559 879 645
552 881 667
539 884 694
532 885 721
523 886 758
532 886 791
505 891 823
371 904 859
267 893 898
379 863 924
504 836 929
605 821 924
659 810 913
638 791 919
604 760 921
568 726 922
489 648 915
399 560 905
314 498 897
186 441 887
47 391 876
0 347 865
696 929 640
695 929 643
696 929 646
698 929 651
695 929 658
696 928 666
696 929 675
696 930 685
693 930 695
691 929 707
687 932 720
684 932 736
677 933 755
674 934 775
668 934 798
667 934 826
669 935 855
663 937 881
574 947 908
527 940 939
565 915 959
637 890 961
711 878 954
750 866 945
730 848 948
697 818 947
661 787 946
591 712 937
510 628 928
442 566 924
364 513 920
274 460 915
789 970 732
790 970 735
790 970 737
790 969 740
788 970 745
792 969 750
791 969 755
789 968 761
790 968 771
790 968 780
787 968 789
783 968 799
782 968 813
780 968 828
780 968 846
779 968 864
777 968 885
781 968 906
781 969 927
722 977 946
682 972 969
698 953 983
747 933 985
803 924 979
830 915 971
811 900 972
782 873 970
749 844 968
680 774 958
604 694 948
544 636 944
475 578 939
863 997 808
863 997 809
864 997 812
866 997 814
864 997 816
865 996 821
866 996 824
865 995 830
865 995 835
865 994 843
867 993 851
866 993 858
863 993 866
861 992 877
861 992 888
863 992 902
862 991 916
861 991 931
864 991 946
867 991 960
824 998 972
788 997 991
794 980 1002
824 961 1004
868 954 998
888 948 992
873 935 993
848 915 991
819 891 989
759 831 979
692 760 968
637 704 963
913 1016 867
913 1016 868
912 1016 870
912 1016 871
913 1016 872
911 1015 875
913 1015 878
913 1015 880
913 1015 884
913 1014 890
913 1013 895
914 1013 901
912 1013 907
913 1012 914
911 1011 921
911 1011 931
912 1011 940
913 1011 951
915 1010 961
916 1010 973
918 1010 984
887 1015 992
857 1015 1007
846 997 1015
865 981 1017
903 976 1013
925 973 1009
908 960 1009
887 941 1008
864 922 1007
821 876 997
762 814 988
935 1023 901
935 1023 902
935 1023 904
935 1023 904
936 1023 905
935 1023 907
937 1023 909
936 1023 911
936 1023 914
938 1023 918
938 1023 920
937 1023 925
939 1023 931
939 1023 935
939 1023 940
937 1023 946
939 1023 953
939 1023 961
942 1022 971
944 1022 981
944 1022 989
946 1021 998
916 1023 1004
886 1022 1016
865 1007 1022
885 991 1023
923 989 1021
946 989 1019
931 977 1020
912 960 1020
891 942 1019
855 904 1013
942 1023 909
943 1023 911
944 1023 912
945 1023 914
945 1023 915
947 1023 917
948 1023 919
949 1023 921
948 1023 923
949 1023 925
949 1023 928
950 1023 932
950 1023 936
952 1023 941
951 1023 946
951 1023 951
951 1023 957
953 1023 963
953 1023 971
958 1023 982
961 1023 991
963 1023 999
965 1023 1007
948 1023 1016
918 1022 1023
925 1022 1022
952 1022 1022
979 1019 1022
989 1014 1021
983 1010 1021
967 997 1021
951 984 1021
998 1023 945
998 1023 946
998 1023 947
998 1023 948
998 1023 950
999 1023 951
999 1023 953
1000 1023 955
1002 1023 959
1002 1023 961
1002 1023 964
1003 1023 966
1003 1023 970
1004 1023 974
1005 1023 979
1006 1023 984
1006 1023 989
1006 1023 995
1007 1023 999
1007 1023 1005
1008 1022 1011
1009 1022 1016
1008 1021 1020
1009 1021 1021
1001 1021 1021
992 1021 1021
995 1021 1021
1010 1021 1021
1019 1021 1021
1021 1021 1021
1020 1021 1021
1015 1021 1021
1023 1023 984
1023 1023 985
1023 1023 985
1023 1023 986
1023 1023 987
1023 1023 988
1023 1023 989
1023 1023 991
1023 1023 993
1023 1023 996
1023 1023 998
1023 1023 1000
1023 1023 1003
1023 1023 1005
1023 1023 1008
1023 1023 1010
1023 1022 1014
1023 1022 1016
1023 1022 1019
1022 1021 1020
1021 1021 1021
1021 1021 1021
1021 1021 1021
1021 1021 1021
1021 1021 1021
1021 1021 1021
1021 1021 1021
1021 1021 1021
1021 1021 1021
1021 1021 1021
1021 1021 1021
1021 1021 1021
1023 1022 1014
1023 1022 1014
1023 1022 1014
1023 1022 1014
